;FLAVOR:Marlin
;TIME:2937
;Filament used: 3.25483m
;Layer height: 0.2
;MINX:74.336
;MINY:74.336
;MINZ:0.24
;MAXX:145.664
;MAXY:145.664
;MAXZ:4.89
;Generated with Creality Slicer 4.8.2-177
M140 S50
M105
M190 S50
M104 S200
M105
M109 S200
M82 ;absolute extrusion mode
M201 X500.00 Y500.00 Z100.00 E5000.00 ;Setup machine max acceleration
M203 X500.00 Y500.00 Z10.00 E50.00 ;Setup machine max feedrate
M204 P500.00 R1000.00 T500.00 ;Setup Print/Retract/Travel acceleration
M205 X8.00 Y8.00 Z0.40 E5.00 ;Setup Jerk
M220 S100 ;Reset Feedrate
M221 S100 ;Reset Flowrate

G28 ;Home

G92 E0 ;Reset Extruder
G1 Z2.0 F3000 ;Move Z Axis up
G1 X10.1 Y20 Z0.28 F5000.0 ;Move to start position
G1 X10.1 Y200.0 Z0.28 F1500.0 E15 ;Draw the first line
G1 X10.4 Y200.0 Z0.28 F5000.0 ;Move to side a little
G1 X10.4 Y20 Z0.28 F1500.0 E30 ;Draw the second line
G92 E0 ;Reset Extruder
G1 Z2.0 F3000 ;Move Z Axis up

G92 E0
G92 E0
G1 F2700 E-5
;LAYER_COUNT:17
;LAYER:-6
M107
G0 F9000 X79.655 Y79.814 Z0.24
;TYPE:SUPPORT-INTERFACE
G1 F2700 E0
G1 F1350 X79.812 Y79.658 E0.01767
G1 X80.508 Y79.012 E0.09347
G1 X80.647 Y78.893 E0.10807
G1 X81.338 Y78.339 E0.17877
G1 X81.477 Y78.235 E0.19263
G1 X82.192 Y77.743 E0.26191
G1 X82.376 Y77.626 E0.27932
G1 X83.132 Y77.183 E0.34926
G1 X83.274 Y77.106 E0.36216
G1 X84.106 Y76.697 E0.43616
G1 X84.219 Y76.647 E0.44602
G1 X85.069 Y76.304 E0.51919
G1 X85.242 Y76.242 E0.53386
G1 X86.08 Y75.973 E0.60411
G1 X86.244 Y75.927 E0.61771
G1 X87.116 Y75.715 E0.68935
G1 X87.278 Y75.682 E0.70254
G1 X88.171 Y75.534 E0.7748
G1 X88.348 Y75.511 E0.78905
G1 X89.242 Y75.428 E0.86072
G1 X89.384 Y75.421 E0.87206
G1 X90.125 Y75.4 E0.93124
G1 X129.886 Y75.401 E4.10513
G1 X130.887 Y75.437 E4.18509
G1 X131.01 Y75.446 E4.19493
G1 X131.927 Y75.548 E4.26858
G1 X132.102 Y75.573 E4.28269
G1 X132.991 Y75.737 E4.35486
G1 X133.114 Y75.765 E4.36493
G1 X134.008 Y75.999 E4.43869
G1 X134.171 Y76.048 E4.45228
G1 X135.013 Y76.334 E4.52326
G1 X135.179 Y76.398 E4.53746
G1 X135.982 Y76.739 E4.6071
G1 X136.171 Y76.827 E4.62375
G1 X136.965 Y77.235 E4.695
G1 X137.082 Y77.302 E4.70577
G1 X137.861 Y77.776 E4.77856
G1 X138.012 Y77.876 E4.79301
G1 X138.726 Y78.387 E4.8631
G1 X138.874 Y78.5 E4.87796
G1 X139.566 Y79.077 E4.94989
G1 X139.674 Y79.173 E4.96142
G1 X140.186 Y79.655 E5.01755
G1 X140.306 Y79.775 E5.0311
G1 X140.988 Y80.508 E5.11102
G1 X141.107 Y80.647 E5.12562
G1 X141.661 Y81.338 E5.19632
G1 X141.765 Y81.477 E5.21018
G1 X142.257 Y82.192 E5.27946
G1 X142.374 Y82.376 E5.29687
G1 X142.814 Y83.125 E5.36621
G1 X142.887 Y83.259 E5.37839
G1 X143.292 Y84.082 E5.45161
G1 X143.353 Y84.219 E5.46358
G1 X143.695 Y85.064 E5.53635
G1 X143.754 Y85.23 E5.55041
G1 X144.025 Y86.072 E5.62102
G1 X144.072 Y86.238 E5.63479
G1 X144.283 Y87.107 E5.70617
G1 X144.317 Y87.27 E5.71946
G1 X144.465 Y88.162 E5.79164
G1 X144.489 Y88.348 E5.80661
G1 X144.57 Y89.232 E5.87747
G1 X144.579 Y89.384 E5.88962
G1 X144.6 Y90.117 E5.94816
G1 X144.6 Y129.869 E9.12134
G1 X144.564 Y130.875 E9.20169
G1 X144.554 Y131.01 E9.2125
G1 X144.452 Y131.927 E9.28615
G1 X144.427 Y132.102 E9.30026
G1 X144.265 Y132.98 E9.37153
G1 X144.235 Y133.114 E9.38249
G1 X144.004 Y133.999 E9.4555
G1 X143.952 Y134.171 E9.46984
G1 X143.666 Y135.013 E9.54083
G1 X143.602 Y135.179 E9.55503
G1 X143.261 Y135.982 E9.62467
G1 X143.18 Y136.157 E9.64006
G1 X142.776 Y136.943 E9.7106
G1 X142.698 Y137.082 E9.72333
G1 X142.224 Y137.861 E9.79612
G1 X142.124 Y138.012 E9.81057
G1 X141.613 Y138.726 E9.88066
G1 X141.5 Y138.874 E9.89553
G1 X140.923 Y139.566 E9.96745
G1 X140.827 Y139.674 E9.97898
G1 X140.345 Y140.186 E10.03511
G1 X140.188 Y140.342 E10.05278
G1 X139.503 Y140.978 E10.12739
G1 X139.355 Y141.105 E10.14296
G1 X138.662 Y141.661 E10.21388
G1 X138.523 Y141.765 E10.22774
G1 X137.808 Y142.257 E10.29702
G1 X137.624 Y142.374 E10.31443
G1 X136.868 Y142.817 E10.38437
G1 X136.726 Y142.894 E10.39727
G1 X135.898 Y143.301 E10.47091
G1 X135.781 Y143.353 E10.48113
G1 X134.926 Y143.698 E10.55473
G1 X134.763 Y143.756 E10.56854
G1 X133.92 Y144.027 E10.63923
G1 X133.756 Y144.073 E10.65282
G1 X132.884 Y144.285 E10.72446
G1 X132.722 Y144.318 E10.73765
G1 X131.829 Y144.466 E10.80991
G1 X131.652 Y144.489 E10.82416
G1 X130.758 Y144.572 E10.89583
G1 X130.616 Y144.579 E10.90718
G1 X129.875 Y144.6 E10.96635
G1 X90.114 Y144.599 E14.14024
G1 X89.113 Y144.563 E14.2202
G1 X88.99 Y144.554 E14.23004
G1 X88.073 Y144.452 E14.30369
G1 X87.898 Y144.427 E14.31781
G1 X87.009 Y144.263 E14.38997
G1 X86.886 Y144.235 E14.40004
G1 X85.992 Y144.001 E14.4738
G1 X85.829 Y143.952 E14.48739
G1 X84.987 Y143.666 E14.55837
G1 X84.821 Y143.602 E14.57258
G1 X84.018 Y143.261 E14.64221
G1 X83.829 Y143.173 E14.65886
G1 X83.035 Y142.765 E14.73011
G1 X82.918 Y142.698 E14.74088
G1 X82.139 Y142.224 E14.81367
G1 X81.988 Y142.124 E14.82812
G1 X81.274 Y141.613 E14.89821
G1 X81.126 Y141.5 E14.91308
G1 X80.434 Y140.923 E14.985
G1 X80.326 Y140.827 E14.99653
G1 X79.814 Y140.345 E15.05266
G1 X79.654 Y140.184 E15.07078
G1 X79.01 Y139.49 E15.14636
G1 X78.893 Y139.353 E15.16074
G1 X78.343 Y138.667 E15.23092
G1 X78.227 Y138.511 E15.24644
G1 X77.743 Y137.808 E15.31457
G1 X77.626 Y137.624 E15.33198
G1 X77.183 Y136.868 E15.40192
G1 X77.106 Y136.726 E15.41482
G1 X76.697 Y135.894 E15.48882
G1 X76.647 Y135.781 E15.49868
G1 X76.298 Y134.917 E15.57307
G1 X76.242 Y134.759 E15.58645
G1 X75.97 Y133.911 E15.65754
G1 X75.928 Y133.761 E15.66997
G1 X75.712 Y132.873 E15.74292
G1 X75.683 Y132.73 E15.75457
G1 X75.533 Y131.824 E15.82787
G1 X75.511 Y131.652 E15.84172
G1 X75.428 Y130.753 E15.91378
G1 X75.421 Y130.616 E15.92473
G1 X75.4 Y129.883 E15.98327
G1 X75.4 Y90.131 E19.15644
G1 X75.436 Y89.125 E19.2368
G1 X75.446 Y88.99 E19.24761
G1 X75.547 Y88.075 E19.32109
G1 X75.573 Y87.9 E19.33521
G1 X75.735 Y87.02 E19.40664
G1 X75.765 Y86.886 E19.4176
G1 X75.996 Y86 E19.49069
G1 X76.048 Y85.829 E19.50495
G1 X76.334 Y84.987 E19.57594
G1 X76.398 Y84.821 E19.59014
G1 X76.739 Y84.018 E19.65978
G1 X76.82 Y83.843 E19.67517
G1 X77.235 Y83.035 E19.74768
G1 X77.302 Y82.918 E19.75844
G1 X77.776 Y82.139 E19.83123
G1 X77.876 Y81.988 E19.84569
G1 X78.392 Y81.267 E19.91646
G1 X78.5 Y81.126 E19.93064
G1 X79.077 Y80.434 E20.00256
G1 X79.173 Y80.326 E20.0141
G1 X79.655 Y79.814 E20.07023
G0 F9000 X80 Y79.483
G1 F1350 X80 Y140.52 E24.94246
G0 F9000 X81.6 Y141.846
G1 F1350 X81.6 Y78.15 E30.02695
G0 F9000 X83.2 Y77.146
G1 F1350 X83.2 Y142.849 E35.27165
G0 F9000 X84.8 Y143.593
G1 F1350 X84.8 Y76.412 E40.63433
G0 F9000 X86.4 Y75.889
G1 F1350 X86.4 Y144.107 E46.07978
G0 F9000 X88 Y144.441
G1 F1350 X88 Y75.562 E51.578
G0 F9000 X89.6 Y75.414
G1 F1350 X89.6 Y144.58 E57.09913
G0 F9000 X91.2 Y144.599
G1 F1350 X91.2 Y75.401 E62.62282
G0 F9000 X92.8 Y75.401
G1 F1350 X92.8 Y144.599 E68.1465
G0 F9000 X94.4 Y144.599
G1 F1350 X94.4 Y75.401 E73.67018
G0 F9000 X96 Y75.401
G1 F1350 X96 Y144.599 E79.19387
G0 F9000 X97.6 Y144.599
G1 F1350 X97.6 Y75.401 E84.71755
G0 F9000 X99.2 Y75.401
G1 F1350 X99.2 Y144.599 E90.24124
G0 F9000 X100.8 Y144.599
G1 F1350 X100.8 Y75.401 E95.76492
G0 F9000 X102.4 Y75.401
G1 F1350 X102.4 Y144.599 E101.2886
G0 F9000 X104 Y144.599
G1 F1350 X104 Y75.401 E106.81229
G0 F9000 X105.6 Y75.401
G1 F1350 X105.6 Y144.599 E112.33597
G0 F9000 X107.2 Y144.599
G1 F1350 X107.2 Y75.401 E117.85965
G0 F9000 X108.8 Y75.401
G1 F1350 X108.8 Y144.599 E123.38334
G0 F9000 X110.4 Y144.599
G1 F1350 X110.4 Y75.401 E128.90702
G0 F9000 X112 Y75.401
G1 F1350 X112 Y144.599 E134.4307
G0 F9000 X113.6 Y144.599
G1 F1350 X113.6 Y75.401 E139.95439
G0 F9000 X115.2 Y75.401
G1 F1350 X115.2 Y144.599 E145.47807
G0 F9000 X116.8 Y144.599
G1 F1350 X116.8 Y75.401 E151.00175
G0 F9000 X118.4 Y75.401
G1 F1350 X118.4 Y144.599 E156.52544
G0 F9000 X120 Y144.599
G1 F1350 X120 Y75.401 E162.04912
G0 F9000 X121.6 Y75.401
G1 F1350 X121.6 Y144.599 E167.57281
G0 F9000 X123.2 Y144.599
G1 F1350 X123.2 Y75.401 E173.09649
G0 F9000 X124.8 Y75.401
G1 F1350 X124.8 Y144.599 E178.62017
G0 F9000 X126.4 Y144.599
G1 F1350 X126.4 Y75.401 E184.14386
G0 F9000 X128 Y75.401
G1 F1350 X128 Y144.599 E189.66754
G0 F9000 X129.6 Y144.599
G1 F1350 X129.6 Y75.401 E195.19122
G0 F9000 X131.2 Y75.468
G1 F1350 X131.2 Y144.531 E200.70413
G0 F9000 X132.8 Y144.303
G1 F1350 X132.8 Y75.702 E206.18016
G0 F9000 X134.4 Y76.126
G1 F1350 X134.4 Y143.873 E211.58802
G0 F9000 X136 Y143.251
G1 F1350 X136 Y76.748 E216.89657
G0 F9000 X137.6 Y77.618
G1 F1350 X137.6 Y142.389 E222.06688
G0 F9000 X139.2 Y141.23
G1 F1350 X139.2 Y78.772 E227.05254
G0 F9000 X140.8 Y80.306
G1 F1350 X140.8 Y139.703 E231.79387
G0 F9000 X142.4 Y137.572
G1 F1350 X142.4 Y82.421 E236.19626
G0 F9000 X144 Y85.995
G1 F1350 X144 Y134.013 E240.02926
G1 F2700 E235.02926
G0 F9000 X144.964 Y134.503
G0 X144.231 Y136.421
G0 X143.613 Y137.626
G0 X142.466 Y139.364
G0 X141.06 Y140.976
G0 X140.037 Y141.922
G0 X138.39 Y143.149
G0 X137.222 Y143.836
G0 X135.306 Y144.693
G0 X134.025 Y145.104
G0 X131.985 Y145.519
G0 X129.895 Y145.664
G0 X89.06 Y145.626
G0 X87.734 Y145.479
G0 X85.707 Y145.027
G0 X84.417 Y144.587
G0 X82.537 Y143.705
G0 X81.378 Y142.996
G0 X79.734 Y141.726
G0 X78.502 Y140.486
G0 X77.57 Y139.405
G0 X78.4 Y138.738
G1 F2700 E240.02926
G1 F1350 X78.4 Y81.256 E244.61773
G0 F9000 X76.8 Y83.886
G1 F1350 X76.8 Y136.103 E248.78591
G1 F2700 E243.78591
G0 F300 X76.8 Y136.103 Z0.54
G0 F9000 X77.106 Y136.725
;TIME_ELAPSED:149.868275
;LAYER:-5
;TYPE:SUPPORT
G1 F2700 E248.78591
G1 F1350 X77.182 Y136.866 E248.8019
G1 X77.626 Y137.622 E248.88938
G1 X77.742 Y137.807 E248.91117
G1 X78.226 Y138.51 E248.99633
G1 X78.343 Y138.666 E249.01579
G1 X78.893 Y139.352 E249.10352
G1 X79.009 Y139.488 E249.12135
G1 X79.653 Y140.183 E249.2159
G1 X79.813 Y140.343 E249.23847
G1 X80.325 Y140.825 E249.30864
G1 X80.434 Y140.922 E249.3232
G1 X81.126 Y141.499 E249.4131
G1 X81.273 Y141.612 E249.4316
G1 X81.988 Y142.123 E249.51929
G1 X82.138 Y142.223 E249.53728
G1 X82.918 Y142.696 E249.6283
G1 X83.034 Y142.764 E249.64171
G1 X83.717 Y143.114 E249.71829
G1 X76.89 Y136.287 E250.68166
G1 X76.697 Y135.893 E250.72543
G1 X76.646 Y135.78 E250.7378
G1 X76.298 Y134.915 E250.83084
G1 X76.242 Y134.758 E250.84747
G1 X75.989 Y133.972 E250.92986
G1 X86.025 Y144.008 E252.34605
G1 X86.886 Y144.234 E252.43487
G1 X87.008 Y144.261 E252.44733
G1 X87.848 Y144.417 E252.53258
G1 X75.588 Y132.156 E254.26267
G1 X75.533 Y131.823 E254.29635
G1 X75.511 Y131.651 E254.31365
G1 X75.427 Y130.751 E254.40384
G1 X75.421 Y130.615 E254.41743
G1 X75.42 Y130.574 E254.42152
G1 X89.418 Y144.572 E256.39679
G1 X90.114 Y144.598 E256.46628
G1 X90.858 Y144.598 E256.54052
G1 X75.4 Y129.14 E258.72181
G1 X75.4 Y127.726 E258.8629
G1 X92.272 Y144.598 E261.24372
G1 X93.686 Y144.598 E261.38481
G1 X75.4 Y126.311 E263.96524
G1 X75.4 Y124.897 E264.10632
G1 X95.1 Y144.598 E266.88628
G1 X96.515 Y144.598 E267.02747
G1 X75.4 Y123.483 E270.00702
G1 X75.4 Y122.069 E270.14811
G1 X97.929 Y144.598 E273.3272
G1 X99.343 Y144.598 E273.46829
G1 X75.4 Y120.655 E276.8469
G1 X75.4 Y119.24 E276.98809
G1 X100.757 Y144.598 E280.56631
G1 X102.171 Y144.598 E280.7074
G1 X75.4 Y117.826 E284.48515
G1 X75.4 Y116.412 E284.62624
G1 X103.586 Y144.598 E288.60358
G1 X105 Y144.598 E288.74467
G1 X75.4 Y114.998 E292.92155
G1 X75.4 Y113.583 E293.06274
G1 X106.414 Y144.598 E297.43922
G1 X107.828 Y144.598 E297.58031
G1 X75.4 Y112.169 E302.15632
G1 X75.4 Y110.755 E302.29741
G1 X109.243 Y144.598 E307.07303
G1 X110.657 Y144.599 E307.21412
G1 X75.4 Y109.341 E312.18933
G1 X75.4 Y107.927 E312.33042
G1 X112.072 Y144.599 E317.50524
G1 X113.486 Y144.599 E317.64633
G1 X75.4 Y106.512 E323.02074
G1 X75.4 Y105.098 E323.16183
G1 X114.9 Y144.599 E328.73578
G1 X116.314 Y144.599 E328.87687
G1 X75.4 Y103.684 E334.65035
G1 X75.4 Y102.27 E334.79144
G1 X117.729 Y144.599 E340.76451
G1 X119.143 Y144.599 E340.9056
G1 X75.4 Y100.856 E347.07821
G1 X75.4 Y99.441 E347.2194
G1 X120.557 Y144.599 E353.59161
G1 X121.971 Y144.599 E353.7327
G1 X75.4 Y98.027 E360.30445
G1 X75.4 Y96.613 E360.44553
G1 X123.385 Y144.599 E367.21681
G1 X124.8 Y144.599 E367.358
G1 X75.4 Y95.199 E374.32887
G1 X75.4 Y93.784 E374.47006
G1 X126.214 Y144.599 E381.64053
G1 X127.628 Y144.599 E381.78162
G1 X75.4 Y92.37 E389.15163
G1 X75.4 Y90.956 E389.29272
G1 X129.042 Y144.599 E396.86226
G1 X129.875 Y144.599 E396.94537
G1 X130.441 Y144.583 E397.00187
G1 X75.42 Y89.562 E404.76593
G1 X75.436 Y89.124 E404.80966
G1 X75.445 Y88.989 E404.82316
G1 X75.526 Y88.254 E404.89694
G1 X131.748 Y144.476 E412.83048
G1 X131.829 Y144.465 E412.83863
G1 X132.721 Y144.316 E412.92887
G1 X132.884 Y144.284 E412.94544
G1 X132.953 Y144.267 E412.95253
G1 X75.73 Y87.044 E421.02732
G1 X75.735 Y87.019 E421.02986
G1 X75.765 Y86.885 E421.04356
G1 X75.996 Y85.999 E421.13492
G1 X76.019 Y85.919 E421.14323
G1 X134.075 Y143.975 E429.33556
G1 X134.762 Y143.755 E429.40754
G1 X134.925 Y143.696 E429.42483
G1 X135.128 Y143.614 E429.44668
G1 X76.38 Y84.865 E437.73673
G1 X76.398 Y84.82 E437.74156
G1 X76.738 Y84.017 E437.82857
G1 X76.803 Y83.874 E437.84425
G1 X136.119 Y143.19 E446.21437
G1 X136.726 Y142.893 E446.2818
G1 X136.868 Y142.816 E446.29792
G1 X137.051 Y142.708 E446.31912
G1 X77.286 Y82.943 E454.75261
G1 X77.301 Y82.917 E454.75561
G1 X77.775 Y82.138 E454.84659
G1 X77.822 Y82.065 E454.85526
G1 X137.928 Y142.171 E463.33686
G1 X138.522 Y141.764 E463.40871
G1 X138.662 Y141.66 E463.42611
G1 X138.756 Y141.584 E463.43817
G1 X78.411 Y81.239 E471.9535
G1 X78.5 Y81.124 E471.96801
G1 X79.05 Y80.464 E472.05374
G1 X139.534 Y140.948 E480.58868
G1 X140.188 Y140.34 E480.67778
G1 X140.264 Y140.264 E480.68851
G1 X79.734 Y79.734 E489.22995
G1 X79.811 Y79.658 E489.24074
G1 X80.465 Y79.051 E489.32977
G1 X140.949 Y139.534 E497.86465
G1 X141.499 Y138.874 E497.95037
G1 X141.587 Y138.759 E497.96482
G1 X81.243 Y78.414 E506.48008
G1 X81.337 Y78.338 E506.49214
G1 X81.476 Y78.235 E506.50941
G1 X82.07 Y77.827 E506.58131
G1 X142.176 Y137.933 E515.06292
G1 X142.223 Y137.861 E515.07149
G1 X142.697 Y137.081 E515.16257
G1 X142.712 Y137.055 E515.16556
G1 X82.947 Y77.291 E523.59898
G1 X83.131 Y77.182 E523.62032
G1 X83.273 Y77.105 E523.63644
G1 X83.879 Y76.808 E523.70377
G1 X143.195 Y136.124 E532.0739
G1 X143.26 Y135.981 E532.08958
G1 X143.6 Y135.179 E532.17649
G1 X143.619 Y135.133 E532.18146
G1 X84.869 Y76.384 E540.47165
G1 X85.067 Y76.303 E540.493
G1 X85.241 Y76.242 E540.51139
G1 X85.923 Y76.023 E540.58287
G1 X143.978 Y134.079 E548.77512
G1 X144.003 Y133.998 E548.78358
G1 X144.234 Y133.114 E548.87475
G1 X144.263 Y132.979 E548.88853
G1 X144.268 Y132.955 E548.89097
G1 X87.045 Y75.731 E556.96583
G1 X87.114 Y75.714 E556.97292
G1 X87.277 Y75.682 E556.98949
G1 X88.169 Y75.533 E557.07973
G1 X88.251 Y75.523 E557.08797
G1 X144.471 Y131.743 E565.02122
G1 X144.553 Y131.009 E565.09492
G1 X144.563 Y130.874 E565.10842
G1 X144.579 Y130.437 E565.15206
G1 X89.557 Y75.415 E572.91626
G1 X90.124 Y75.399 E572.97285
G1 X90.956 Y75.4 E573.05587
G1 X144.599 Y129.042 E580.62541
G1 X144.599 Y127.628 E580.7665
G1 X92.37 Y75.4 E588.1365
G1 X93.784 Y75.4 E588.27759
G1 X144.599 Y126.214 E595.44807
G1 X144.599 Y124.8 E595.58916
G1 X95.199 Y75.4 E602.56003
G1 X96.613 Y75.4 E602.70112
G1 X144.599 Y123.385 E609.47239
G1 X144.599 Y121.971 E609.61348
G1 X98.027 Y75.4 E616.18522
G1 X99.441 Y75.4 E616.32631
G1 X144.599 Y120.557 E622.69852
G1 X144.599 Y119.143 E622.83961
G1 X100.856 Y75.4 E629.01222
G1 X102.27 Y75.4 E629.15331
G1 X144.599 Y117.729 E635.12639
G1 X144.599 Y116.314 E635.26758
G1 X103.684 Y75.4 E641.04106
G1 X105.098 Y75.4 E641.18215
G1 X144.599 Y114.9 E646.7561
G1 X144.599 Y113.486 E646.89718
G1 X106.512 Y75.4 E652.2716
G1 X107.927 Y75.4 E652.41279
G1 X144.599 Y112.072 E657.58761
G1 X144.599 Y110.657 E657.7288
G1 X109.341 Y75.4 E662.70401
G1 X110.756 Y75.4 E662.8452
G1 X144.599 Y109.243 E667.62081
G1 X144.599 Y107.829 E667.7619
G1 X112.17 Y75.4 E672.33798
G1 X113.584 Y75.4 E672.47907
G1 X144.599 Y106.415 E676.85562
G1 X144.599 Y105.001 E676.99671
G1 X114.998 Y75.4 E681.17373
G1 X116.413 Y75.4 E681.31492
G1 X144.599 Y103.586 E685.29227
G1 X144.599 Y102.172 E685.43336
G1 X117.827 Y75.4 E689.21118
G1 X119.241 Y75.4 E689.35227
G1 X144.599 Y100.758 E692.93056
G1 X144.599 Y99.344 E693.07165
G1 X120.655 Y75.4 E696.4504
G1 X122.069 Y75.4 E696.59149
