;FLAVOR:Marlin
;TIME:7274
;Filament used: 5.65797m
;Layer height: 0.2
;MINX:74.335
;MINY:55.13
;MINZ:0.24
;MAXX:145.239
;MAXY:164.87
;MAXZ:71.85
;Generated with Creality Slicer 4.8.2-177
M140 S50
M105
M190 S50
M104 S200
M105
M109 S200
M82 ;absolute extrusion mode
M201 X500.00 Y500.00 Z100.00 E5000.00 ;Setup machine max acceleration
M203 X500.00 Y500.00 Z10.00 E50.00 ;Setup machine max feedrate
M204 P500.00 R1000.00 T500.00 ;Setup Print/Retract/Travel acceleration
M205 X8.00 Y8.00 Z0.40 E5.00 ;Setup Jerk
M220 S100 ;Reset Feedrate
M221 S100 ;Reset Flowrate

G28 ;Home

G92 E0 ;Reset Extruder
G1 Z2.0 F3000 ;Move Z Axis up
G1 X10.1 Y20 Z0.28 F5000.0 ;Move to start position
G1 X10.1 Y200.0 Z0.28 F1500.0 E15 ;Draw the first line
G1 X10.4 Y200.0 Z0.28 F5000.0 ;Move to side a little
G1 X10.4 Y20 Z0.28 F1500.0 E30 ;Draw the second line
G92 E0 ;Reset Extruder
G1 Z2.0 F3000 ;Move Z Axis up

G92 E0
G92 E0
G1 F2700 E-5
;LAYER_COUNT:297
;LAYER:-6
M107
G0 F9000 X87.199 Y62.061 Z0.24
;TYPE:SUPPORT-INTERFACE
G1 F2700 E0
G1 F1350 X87.307 Y61.92 E0.01418
G1 X87.884 Y61.228 E0.0861
G1 X87.98 Y61.12 E0.09763
G1 X88.462 Y60.608 E0.15376
G1 X88.619 Y60.452 E0.17143
G1 X89.315 Y59.806 E0.24723
G1 X89.454 Y59.687 E0.26184
G1 X90.145 Y59.133 E0.33254
G1 X90.284 Y59.029 E0.34639
G1 X90.999 Y58.537 E0.41568
G1 X91.183 Y58.42 E0.43308
G1 X91.939 Y57.977 E0.50303
G1 X92.081 Y57.9 E0.51592
G1 X92.913 Y57.491 E0.58992
G1 X93.026 Y57.441 E0.59979
G1 X93.876 Y57.098 E0.67295
G1 X94.049 Y57.036 E0.68762
G1 X94.887 Y56.767 E0.75788
G1 X95.051 Y56.721 E0.77148
G1 X95.923 Y56.509 E0.84311
G1 X96.085 Y56.476 E0.85631
G1 X96.978 Y56.328 E0.92856
G1 X97.155 Y56.305 E0.94281
G1 X98.049 Y56.222 E1.01448
G1 X98.191 Y56.215 E1.02583
G1 X98.932 Y56.194 E1.085
G1 X118.693 Y56.195 E2.66241
G1 X119.694 Y56.231 E2.74237
G1 X119.817 Y56.24 E2.75221
G1 X120.734 Y56.342 E2.82586
G1 X120.909 Y56.367 E2.83997
G1 X121.798 Y56.531 E2.91213
G1 X121.921 Y56.559 E2.9222
G1 X122.815 Y56.793 E2.99597
G1 X122.978 Y56.842 E3.00956
G1 X123.82 Y57.128 E3.08054
G1 X123.986 Y57.192 E3.09474
G1 X124.789 Y57.533 E3.16438
G1 X124.978 Y57.621 E3.18102
G1 X125.772 Y58.029 E3.25228
G1 X125.889 Y58.096 E3.26304
G1 X126.668 Y58.57 E3.33583
G1 X126.819 Y58.67 E3.35029
G1 X127.533 Y59.181 E3.42038
G1 X127.681 Y59.294 E3.43524
G1 X128.373 Y59.871 E3.50716
G1 X128.481 Y59.967 E3.5187
G1 X128.993 Y60.449 E3.57483
G1 X129.112 Y60.568 E3.58826
G1 X129.795 Y61.302 E3.6683
G1 X129.914 Y61.441 E3.6829
G1 X130.468 Y62.132 E3.7536
G1 X130.572 Y62.271 E3.76746
G1 X131.064 Y62.986 E3.83674
G1 X131.181 Y63.17 E3.85414
G1 X131.621 Y63.919 E3.92349
G1 X131.694 Y64.053 E3.93567
G1 X132.099 Y64.876 E4.00889
G1 X132.16 Y65.013 E4.02086
G1 X132.502 Y65.858 E4.09362
G1 X132.561 Y66.024 E4.10769
G1 X132.832 Y66.866 E4.17829
G1 X132.879 Y67.032 E4.19207
G1 X133.09 Y67.901 E4.26345
G1 X133.124 Y68.064 E4.27674
G1 X133.272 Y68.956 E4.34892
G1 X133.296 Y69.142 E4.36389
G1 X133.377 Y70.026 E4.43475
G1 X133.386 Y70.178 E4.4469
G1 X133.407 Y70.911 E4.50544
G1 X133.407 Y81.663 E5.36371
G1 X133.371 Y82.669 E5.44406
G1 X133.361 Y82.804 E5.45487
G1 X133.259 Y83.721 E5.52852
G1 X133.234 Y83.896 E5.54263
G1 X133.072 Y84.774 E5.6139
G1 X133.042 Y84.908 E5.62486
G1 X132.811 Y85.793 E5.69787
G1 X132.759 Y85.965 E5.71222
G1 X132.471 Y86.812 E5.78363
G1 X132.417 Y86.954 E5.79576
G1 X132.06 Y87.795 E5.86869
G1 X131.796 Y88.455 E5.92543
G1 X131.586 Y89.092 E5.97897
G1 X131.457 Y89.762 E6.03343
G1 X131.413 Y90.443 E6.08791
G1 X131.455 Y91.125 E6.14245
G1 X131.584 Y91.796 E6.19699
G1 X131.796 Y92.445 E6.25149
G1 X132.087 Y93.062 E6.30595
G1 X132.455 Y93.638 E6.36051
G1 X132.892 Y94.163 E6.41503
G1 X133.392 Y94.627 E6.46949
G1 X133.946 Y95.026 E6.52398
G1 X134.544 Y95.349 E6.57824
G1 X134.57 Y95.36 E6.58049
G1 X134.567 Y95.369 E6.58125
G1 X135.179 Y95.604 E6.63358
G1 X135.982 Y95.945 E6.70322
G1 X136.171 Y96.033 E6.71986
G1 X136.965 Y96.441 E6.79112
G1 X137.082 Y96.508 E6.80188
G1 X137.861 Y96.982 E6.87467
G1 X138.012 Y97.082 E6.88913
G1 X138.726 Y97.593 E6.95921
G1 X138.874 Y97.706 E6.97408
G1 X139.566 Y98.283 E7.046
G1 X139.674 Y98.379 E7.05753
G1 X140.186 Y98.861 E7.11366
G1 X140.342 Y99.018 E7.13133
G1 X140.988 Y99.714 E7.20713
G1 X141.107 Y99.853 E7.22174
G1 X141.661 Y100.544 E7.29244
G1 X141.765 Y100.683 E7.30629
G1 X142.257 Y101.398 E7.37558
G1 X142.374 Y101.582 E7.39298
G1 X142.814 Y102.331 E7.46232
G1 X142.887 Y102.465 E7.4745
G1 X143.292 Y103.288 E7.54772
G1 X143.353 Y103.425 E7.55969
G1 X143.695 Y104.27 E7.63246
G1 X143.754 Y104.436 E7.64652
G1 X144.025 Y105.278 E7.71713
G1 X144.072 Y105.444 E7.7309
G1 X144.283 Y106.313 E7.80228
G1 X144.317 Y106.476 E7.81558
G1 X144.465 Y107.368 E7.88775
G1 X144.489 Y107.554 E7.90272
G1 X144.57 Y108.438 E7.97358
G1 X144.579 Y108.59 E7.98574
G1 X144.6 Y109.323 E8.04427
G1 X144.6 Y149.075 E11.21745
G1 X144.564 Y150.081 E11.2978
G1 X144.554 Y150.216 E11.30861
G1 X144.452 Y151.133 E11.38226
G1 X144.427 Y151.308 E11.39637
G1 X144.265 Y152.186 E11.46764
G1 X144.235 Y152.32 E11.4786
G1 X144.004 Y153.205 E11.55161
G1 X143.952 Y153.377 E11.56596
G1 X143.666 Y154.219 E11.63694
G1 X143.602 Y154.385 E11.65114
G1 X143.261 Y155.188 E11.72078
G1 X143.18 Y155.363 E11.73617
G1 X142.776 Y156.149 E11.80672
G1 X142.698 Y156.288 E11.81944
G1 X142.224 Y157.067 E11.89223
G1 X142.124 Y157.218 E11.90669
G1 X141.613 Y157.932 E11.97678
G1 X141.5 Y158.08 E11.99164
G1 X140.923 Y158.772 E12.06356
G1 X140.827 Y158.88 E12.0751
G1 X140.345 Y159.392 E12.13123
G1 X140.188 Y159.548 E12.14889
G1 X139.503 Y160.184 E12.22351
G1 X139.355 Y160.311 E12.23908
G1 X138.662 Y160.867 E12.31
G1 X138.523 Y160.971 E12.32386
G1 X137.808 Y161.463 E12.39314
G1 X137.624 Y161.58 E12.41054
G1 X136.868 Y162.023 E12.48049
G1 X136.726 Y162.1 E12.49338
G1 X135.898 Y162.507 E12.56703
G1 X135.781 Y162.559 E12.57725
G1 X134.926 Y162.904 E12.65085
G1 X134.763 Y162.962 E12.66466
G1 X133.92 Y163.233 E12.73534
G1 X133.756 Y163.279 E12.74894
G1 X132.884 Y163.491 E12.82057
G1 X132.722 Y163.524 E12.83377
G1 X131.829 Y163.672 E12.90602
G1 X131.652 Y163.695 E12.92027
G1 X130.758 Y163.778 E12.99194
G1 X130.616 Y163.785 E13.00329
G1 X129.875 Y163.806 E13.06246
G1 X90.114 Y163.805 E16.23636
G1 X89.113 Y163.769 E16.31631
G1 X88.99 Y163.76 E16.32616
G1 X88.073 Y163.658 E16.39981
G1 X87.898 Y163.633 E16.41392
G1 X87.009 Y163.469 E16.48608
G1 X86.886 Y163.441 E16.49615
G1 X85.992 Y163.207 E16.56992
G1 X85.829 Y163.158 E16.5835
G1 X84.987 Y162.872 E16.65449
G1 X84.821 Y162.808 E16.66869
G1 X84.018 Y162.467 E16.73833
G1 X83.829 Y162.379 E16.75497
G1 X83.035 Y161.971 E16.82623
G1 X82.918 Y161.904 E16.83699
G1 X82.139 Y161.43 E16.90978
G1 X81.988 Y161.33 E16.92424
G1 X81.274 Y160.819 E16.99433
G1 X81.126 Y160.706 E17.00919
G1 X80.434 Y160.129 E17.08111
G1 X80.326 Y160.033 E17.09265
G1 X79.814 Y159.551 E17.14878
G1 X79.654 Y159.39 E17.1669
G1 X79.01 Y158.696 E17.24247
G1 X78.893 Y158.559 E17.25685
G1 X78.343 Y157.873 E17.32704
G1 X78.227 Y157.717 E17.34256
G1 X77.743 Y157.014 E17.41069
G1 X77.626 Y156.83 E17.42809
G1 X77.183 Y156.074 E17.49804
G1 X77.106 Y155.932 E17.51093
G1 X76.697 Y155.1 E17.58494
G1 X76.647 Y154.987 E17.5948
G1 X76.298 Y154.123 E17.66918
G1 X76.242 Y153.965 E17.68256
G1 X75.97 Y153.117 E17.75365
G1 X75.928 Y152.967 E17.76608
G1 X75.712 Y152.079 E17.83904
G1 X75.683 Y151.936 E17.85068
G1 X75.533 Y151.03 E17.92399
G1 X75.511 Y150.858 E17.93783
G1 X75.428 Y149.959 E18.0099
G1 X75.421 Y149.822 E18.02085
G1 X75.4 Y149.089 E18.07938
G1 X75.4 Y109.337 E21.25256
G1 X75.436 Y108.331 E21.33291
G1 X75.446 Y108.196 E21.34372
G1 X75.547 Y107.281 E21.4172
G1 X75.573 Y107.106 E21.43132
G1 X75.735 Y106.226 E21.50275
G1 X75.765 Y106.092 E21.51371
G1 X75.996 Y105.206 E21.5868
G1 X76.048 Y105.035 E21.60107
G1 X76.334 Y104.193 E21.67205
G1 X76.398 Y104.027 E21.68625
G1 X76.739 Y103.224 E21.75589
G1 X76.82 Y103.049 E21.77128
G1 X77.235 Y102.241 E21.84379
G1 X77.302 Y102.124 E21.85456
G1 X77.776 Y101.345 E21.92734
G1 X77.876 Y101.194 E21.9418
G1 X78.392 Y100.473 E22.01258
G1 X78.5 Y100.332 E22.02675
G1 X79.077 Y99.64 E22.09867
G1 X79.173 Y99.532 E22.11021
G1 X79.655 Y99.02 E22.16634
G1 X79.812 Y98.864 E22.18401
G1 X80.508 Y98.218 E22.25981
G1 X80.647 Y98.099 E22.27441
G1 X81.338 Y97.545 E22.34511
G1 X81.477 Y97.441 E22.35897
G1 X82.192 Y96.949 E22.42825
G1 X82.376 Y96.832 E22.44566
G1 X83.131 Y96.389 E22.51553
G1 X83.261 Y96.319 E22.52732
G1 X83.574 Y96.164 E22.5552
G1 X84.155 Y95.83 E22.60869
G1 X84.7 Y95.419 E22.66318
G1 X85.188 Y94.943 E22.7176
G1 X85.613 Y94.408 E22.77214
G1 X85.966 Y93.823 E22.82668
G1 X86.244 Y93.199 E22.88121
G1 X86.44 Y92.545 E22.93571
G1 X86.552 Y91.871 E22.99025
G1 X86.578 Y91.189 E23.04473
G1 X86.518 Y90.51 E23.09914
G1 X86.372 Y89.839 E23.15396
G1 X86.087 Y89.07 E23.21942
G1 X85.906 Y88.677 E23.25396
G1 X85.552 Y87.829 E23.32731
G1 X85.464 Y87.6 E23.34689
G1 X85.106 Y86.714 E23.42317
G1 X85.049 Y86.553 E23.43681
G1 X84.777 Y85.705 E23.5079
G1 X84.735 Y85.555 E23.52033
G1 X84.519 Y84.667 E23.59328
G1 X84.49 Y84.524 E23.60493
G1 X84.34 Y83.618 E23.67823
G1 X84.318 Y83.446 E23.69207
G1 X84.235 Y82.547 E23.76414
G1 X84.228 Y82.41 E23.77509
G1 X84.207 Y81.677 E23.83363
G1 X84.207 Y70.925 E24.6919
G1 X84.243 Y69.919 E24.77225
G1 X84.253 Y69.784 E24.78306
G1 X84.354 Y68.869 E24.85654
G1 X84.38 Y68.694 E24.87066
G1 X84.542 Y67.814 E24.94209
G1 X84.572 Y67.68 E24.95305
G1 X84.803 Y66.794 E25.02614
G1 X84.855 Y66.623 E25.04041
G1 X85.141 Y65.781 E25.11139
G1 X85.205 Y65.615 E25.12559
G1 X85.546 Y64.812 E25.19523
G1 X85.627 Y64.637 E25.21062
G1 X86.042 Y63.829 E25.28313
G1 X86.109 Y63.712 E25.29389
G1 X86.583 Y62.933 E25.36668
G1 X86.683 Y62.782 E25.38114
G1 X87.199 Y62.061 E25.45192
G0 F9000 X88 Y61.098
G1 F1350 X88 Y163.647 E33.63782
G0 F9000 X89.6 Y163.786
G1 F1350 X89.6 Y59.569 E41.95687
G0 F9000 X91.2 Y58.41
G1 F1350 X91.2 Y163.805 E50.36996
G0 F9000 X92.8 Y163.805
G1 F1350 X92.8 Y57.546 E58.85201
G0 F9000 X94.4 Y56.923
G1 F1350 X94.4 Y163.805 E67.38379
G0 F9000 X96 Y163.805
G1 F1350 X96 Y56.493 E75.9499
G0 F9000 X97.6 Y56.263
G1 F1350 X97.6 Y163.805 E84.53437
G0 F9000 X99.2 Y163.805
G1 F1350 X99.2 Y56.195 E93.12426
G0 F9000 X100.8 Y56.195
G1 F1350 X100.8 Y163.805 E101.71416
G0 F9000 X102.4 Y163.805
G1 F1350 X102.4 Y56.195 E110.30405
G0 F9000 X104 Y56.195
G1 F1350 X104 Y163.805 E118.89395
G0 F9000 X105.6 Y163.805
G1 F1350 X105.6 Y56.195 E127.48385
G0 F9000 X107.2 Y56.195
G1 F1350 X107.2 Y163.805 E136.07374
G0 F9000 X108.8 Y163.805
G1 F1350 X108.8 Y56.195 E144.66364
G0 F9000 X110.4 Y56.195
G1 F1350 X110.4 Y163.805 E153.25353
G0 F9000 X112 Y163.805
G1 F1350 X112 Y56.195 E161.84343
G0 F9000 X113.6 Y56.195
G1 F1350 X113.6 Y163.805 E170.43332
G0 F9000 X115.2 Y163.805
G1 F1350 X115.2 Y56.195 E179.02322
G0 F9000 X116.8 Y56.195
G1 F1350 X116.8 Y163.805 E187.61311
G0 F9000 X118.4 Y163.805
G1 F1350 X118.4 Y56.195 E196.20301
G0 F9000 X120 Y56.261
G1 F1350 X120 Y163.805 E204.78764
G0 F9000 X121.6 Y163.805
G1 F1350 X121.6 Y56.495 E213.35359
G0 F9000 X123.2 Y56.918
G1 F1350 X123.2 Y163.805 E221.88577
G0 F9000 X124.8 Y163.805
G1 F1350 X124.8 Y57.539 E230.36838
G0 F9000 X126.4 Y58.407
G1 F1350 X126.4 Y163.805 E238.7817
G0 F9000 X128 Y163.805
G1 F1350 X128 Y59.56 E247.10299
G0 F9000 X129.6 Y61.093
G1 F1350 X129.6 Y163.805 E255.30191
G0 F9000 X131.2 Y163.737
G1 F1350 X131.2 Y63.203 E263.32696
G0 F9000 X132.8 Y66.767
G1 F1350 X132.8 Y85.83 E264.84866
G1 F2700 E259.84866
G0 F9000 X133.771 Y86.297
G0 X133.312 Y93.003
G0 X132.8 Y94.053
G1 F2700 E264.84866
G1 F1350 X132.8 Y163.509 E270.39293
G0 F9000 X134.4 Y163.079
G1 F1350 X134.4 Y95.272 E275.80558
G0 F9000 X136 Y95.954
G1 F1350 X136 Y162.457 E281.11414
G0 F9000 X137.6 Y161.595
G1 F1350 X137.6 Y96.824 E286.28444
G0 F9000 X139.2 Y97.978
G1 F1350 X139.2 Y160.436 E291.27011
G0 F9000 X140.8 Y158.909
G1 F1350 X140.8 Y99.512 E296.01143
G0 F9000 X142.4 Y101.627
G1 F1350 X142.4 Y156.778 E300.41382
G0 F9000 X144 Y153.219
G1 F1350 X144 Y105.201 E304.24683
G1 F2700 E299.24683
G0 F9000 X145.014 Y104.875
G0 X133.5 Y65.488
G0 X132.643 Y63.572
G0 X131.956 Y62.404
G0 X130.729 Y60.757
G0 X129.205 Y59.186
G0 X128.171 Y58.328
G0 X126.433 Y57.181
G0 X125.228 Y56.563
G0 X123.31 Y55.83
G0 X122.006 Y55.488
G0 X119.921 Y55.181
G0 X118.677 Y55.13
G0 X97.968 Y55.162
G0 X95.891 Y55.428
G0 X94.582 Y55.747
G0 X92.617 Y56.459
G0 X91.422 Y57.047
G0 X89.67 Y58.16
G0 X88.613 Y59.006
G0 X87.081 Y60.528
G0 X85.811 Y62.172
G0 X85.102 Y63.331
G0 X84.22 Y65.211
G0 X83.78 Y66.498
G0 X83.328 Y68.526
G0 X83.181 Y69.854
G0 X83.175 Y82.633
G0 X83.441 Y84.709
G0 X85.402 Y92.303
G0 X86.4 Y92.678
G1 F2700 E304.24683
G1 F1350 X86.4 Y163.313 E309.88522
G0 F9000 X84.8 Y162.799
G1 F1350 X84.8 Y95.321 E315.27161
G0 F9000 X83.2 Y96.351
G1 F1350 X83.2 Y162.055 E320.51638
G0 F9000 X81.6 Y161.052
G1 F1350 X81.6 Y97.356 E325.60087
G0 F9000 X80 Y98.689
G1 F1350 X80 Y159.726 E330.47311
G0 F9000 X78.4 Y157.944
G1 F1350 X78.4 Y100.462 E335.06157
G0 F9000 X76.8 Y103.092
G1 F1350 X76.8 Y155.309 E339.22976
G1 F2700 E334.22976
G0 F9000 X75.665 Y155.396
G0 X74.953 Y153.431
G0 X74.634 Y152.121
G0 X74.368 Y150.045
G0 X74.374 Y108.266
G0 X74.521 Y106.938
G0 X74.973 Y104.91
G0 X75.413 Y103.623
G0 X76.295 Y101.743
G0 X77.004 Y100.584
G0 X78.032 Y99.253
G0 X85.464 Y90.67
G0 X86.4 Y89.967
G1 F2700 E339.22976
G1 F1350 X86.4 Y63.233 E341.36378
G0 F9000 X84.8 Y66.805
G1 F1350 X84.8 Y85.776 E342.87813
G1 F2700 E337.87813
G0 F300 X84.8 Y85.776 Z0.54
G0 F9000 X83.787 Y86.102
G0 X75.769 Y102.785
G0 X75.036 Y104.702
G0 X74.694 Y106.007
G0 X74.446 Y107.695
G0 X74.335 Y109.298
G0 X75.399 Y109.336
;TIME_ELAPSED:205.650220
;LAYER:-5
;TYPE:SUPPORT
G1 F2700 E342.87813
G1 F1350 X75.435 Y108.33 E342.97857
G1 X75.446 Y108.195 E342.99209
G1 X75.468 Y107.995 E343.01216
G1 X131.207 Y163.734 E350.87754
G1 X131.651 Y163.693 E350.92203
G1 X131.828 Y163.671 E350.93983
G1 X132.454 Y163.567 E351.00315
G1 X75.637 Y106.75 E359.02064
G1 X75.734 Y106.225 E359.07391
G1 X75.765 Y106.091 E359.08763
G1 X75.894 Y105.592 E359.13906
G1 X133.613 Y163.311 E367.28384
G1 X133.756 Y163.278 E367.29848
G1 X133.919 Y163.232 E367.31538
G1 X134.697 Y162.981 E367.39695
G1 X76.225 Y104.509 E375.64798
G1 X76.333 Y104.192 E375.68139
G1 X76.397 Y104.026 E375.69915
G1 X76.624 Y103.494 E375.75686
G1 X135.714 Y162.584 E384.0951
G1 X135.781 Y162.558 E384.10227
G1 X135.898 Y162.506 E384.11504
G1 X136.67 Y162.126 E384.2009
G1 X77.081 Y102.537 E392.60955
G1 X77.235 Y102.239 E392.64302
G1 X77.302 Y102.123 E392.65639
G1 X77.596 Y101.638 E392.71298
G1 X137.569 Y161.611 E401.17582
G1 X137.624 Y161.579 E401.18217
G1 X137.808 Y161.462 E401.20392
G1 X138.416 Y161.043 E401.2776
G1 X78.163 Y100.791 E409.77988
G1 X78.391 Y100.472 E409.819
G1 X78.5 Y100.331 E409.83679
G1 X78.78 Y99.994 E409.8805
G1 X139.211 Y160.424 E418.4079
G1 X139.354 Y160.31 E418.42615
G1 X139.502 Y160.183 E418.44561
G1 X139.959 Y159.758 E418.50788
G1 X79.444 Y99.243 E427.0472
G1 X79.654 Y99.019 E427.07784
G1 X79.812 Y98.863 E427.09999
G1 X80.158 Y98.543 E427.14702
G1 X140.666 Y159.05 E435.68528
G1 X140.826 Y158.879 E435.70864
G1 X140.922 Y158.771 E435.72306
G1 X141.322 Y158.292 E435.78533
G1 X80.914 Y97.884 E444.30955
G1 X81.337 Y97.544 E444.3637
G1 X81.477 Y97.44 E444.38111
G1 X81.718 Y97.274 E444.41031
G1 X141.931 Y157.487 E452.90701
G1 X142.123 Y157.217 E452.94007
G1 X142.223 Y157.066 E452.95814
G1 X142.489 Y156.631 E453.00902
G1 X82.573 Y96.715 E461.46381
G1 X83.131 Y96.387 E461.52839
G1 X83.261 Y96.318 E461.54308
G1 X83.481 Y96.209 E461.56758
G1 X142.994 Y155.722 E469.96551
G1 X143.179 Y155.361 E470.00598
G1 X143.261 Y155.187 E470.02517
G1 X143.443 Y154.757 E470.07176
G1 X84.36 Y95.674 E478.40901
G1 X84.7 Y95.418 E478.45148
G1 X85.114 Y95.013 E478.50927
G1 X143.831 Y153.731 E486.79494
G1 X143.952 Y153.376 E486.83237
G1 X144.003 Y153.204 E486.85027
G1 X144.152 Y152.638 E486.90867
G1 X85.728 Y94.214 E495.15292
G1 X85.966 Y93.822 E495.19868
G1 X86.207 Y93.278 E495.25805
G1 X144.397 Y151.468 E503.46929
G1 X144.427 Y151.307 E503.48563
G1 X144.452 Y151.132 E503.50327
G1 X144.553 Y150.214 E503.59542
G0 F9000 X144.554 Y150.211
G1 F1350 X86.503 Y92.16 E511.78704
