;FLAVOR:Marlin
;TIME:6605
;Filament used: 5.20767m
;Layer height: 0.2
;MINX:61.444
;MINY:74.335
;MINZ:0.24
;MAXX:158.581
;MAXY:145.664
;MAXZ:67.05
;Generated with Creality Slicer 4.8.2-177
M140 S50
M105
M190 S50
M104 S200
M105
M109 S200
M82 ;absolute extrusion mode
M201 X500.00 Y500.00 Z100.00 E5000.00 ;Setup machine max acceleration
M203 X500.00 Y500.00 Z10.00 E50.00 ;Setup machine max feedrate
M204 P500.00 R1000.00 T500.00 ;Setup Print/Retract/Travel acceleration
M205 X8.00 Y8.00 Z0.40 E5.00 ;Setup Jerk
M220 S100 ;Reset Feedrate
M221 S100 ;Reset Flowrate

G28 ;Home

G92 E0 ;Reset Extruder
G1 Z2.0 F3000 ;Move Z Axis up
G1 X10.1 Y20 Z0.28 F5000.0 ;Move to start position
G1 X10.1 Y200.0 Z0.28 F1500.0 E15 ;Draw the first line
G1 X10.4 Y200.0 Z0.28 F5000.0 ;Move to side a little
G1 X10.4 Y20 Z0.28 F1500.0 E30 ;Draw the second line
G92 E0 ;Reset Extruder
G1 Z2.0 F3000 ;Move Z Axis up

G92 E0
G92 E0
G1 F2700 E-5
;LAYER_COUNT:276
;LAYER:-6
M107
G0 F9000 X67.568 Y79.012 Z0.24
;TYPE:SUPPORT-INTERFACE
G1 F2700 E0
G1 F1350 X67.707 Y78.893 E0.01461
G1 X68.398 Y78.339 E0.0853
G1 X68.537 Y78.235 E0.09916
G1 X69.252 Y77.743 E0.16844
G1 X69.436 Y77.626 E0.18585
G1 X70.192 Y77.183 E0.25579
G1 X70.334 Y77.106 E0.26869
G1 X71.166 Y76.697 E0.34269
G1 X71.279 Y76.647 E0.35256
G1 X72.129 Y76.304 E0.42572
G1 X72.302 Y76.242 E0.44039
G1 X73.14 Y75.973 E0.51065
G1 X73.304 Y75.927 E0.52424
G1 X74.176 Y75.715 E0.59588
G1 X74.338 Y75.682 E0.60907
G1 X75.231 Y75.534 E0.68133
G1 X75.408 Y75.511 E0.69558
G1 X76.302 Y75.428 E0.76725
G1 X76.444 Y75.421 E0.7786
G1 X77.185 Y75.4 E0.83777
G1 X116.946 Y75.401 E4.01166
G1 X117.947 Y75.437 E4.09162
G1 X118.07 Y75.446 E4.10147
G1 X118.987 Y75.548 E4.17512
G1 X119.162 Y75.573 E4.18923
G1 X120.051 Y75.737 E4.26139
G1 X120.174 Y75.765 E4.27146
G1 X121.068 Y75.999 E4.34522
G1 X121.231 Y76.048 E4.35881
G1 X122.073 Y76.334 E4.42979
G1 X122.239 Y76.398 E4.444
G1 X123.042 Y76.739 E4.51364
G1 X123.231 Y76.827 E4.53028
G1 X124.025 Y77.235 E4.60154
G1 X124.142 Y77.302 E4.6123
G1 X124.921 Y77.776 E4.68509
G1 X125.054 Y77.864 E4.69782
G1 X125.339 Y78.069 E4.72584
G1 X125.908 Y78.424 E4.77938
G1 X126.529 Y78.709 E4.83392
G1 X127.179 Y78.914 E4.88832
G1 X127.852 Y79.036 E4.94292
G1 X128.532 Y79.072 E4.99728
G1 X129.148 Y79.029 E5.04657
G1 X129.3 Y79.01 E5.0588
G1 X130.182 Y78.928 E5.12951
G1 X130.324 Y78.921 E5.14085
G1 X131.065 Y78.9 E5.20003
G1 X138.826 Y78.901 E5.81955
G1 X139.827 Y78.937 E5.8995
G1 X139.95 Y78.946 E5.90935
G1 X140.867 Y79.048 E5.983
G1 X141.042 Y79.073 E5.99711
G1 X141.931 Y79.237 E6.06927
G1 X142.054 Y79.265 E6.07934
G1 X142.948 Y79.499 E6.1531
G1 X143.111 Y79.548 E6.16669
G1 X143.953 Y79.834 E6.23767
G1 X144.119 Y79.898 E6.25188
G1 X144.922 Y80.239 E6.32152
G1 X145.111 Y80.327 E6.33816
G1 X145.905 Y80.735 E6.40942
G1 X146.022 Y80.802 E6.42018
G1 X146.801 Y81.276 E6.49297
G1 X146.952 Y81.376 E6.50743
G1 X147.666 Y81.887 E6.57751
G1 X147.814 Y82 E6.59238
G1 X148.506 Y82.577 E6.6643
G1 X148.614 Y82.673 E6.67583
G1 X149.126 Y83.155 E6.73196
G1 X149.282 Y83.312 E6.74963
G1 X149.928 Y84.008 E6.82543
G1 X150.047 Y84.147 E6.84004
G1 X150.601 Y84.838 E6.91074
G1 X150.705 Y84.977 E6.92459
G1 X151.197 Y85.692 E6.99387
G1 X151.314 Y85.876 E7.01128
G1 X151.757 Y86.632 E7.08122
G1 X151.834 Y86.774 E7.09412
G1 X152.237 Y87.593 E7.16698
G1 X152.293 Y87.719 E7.17799
G1 X152.635 Y88.564 E7.25075
G1 X152.694 Y88.729 E7.26474
G1 X152.966 Y89.576 E7.33575
G1 X153.012 Y89.738 E7.3492
G1 X153.224 Y90.612 E7.42099
G1 X153.257 Y90.77 E7.43387
G1 X153.405 Y91.662 E7.50605
G1 X153.429 Y91.848 E7.52102
G1 X153.511 Y92.732 E7.59189
G1 X153.519 Y92.884 E7.60404
G1 X153.54 Y93.617 E7.66257
G1 X153.54 Y100.982 E8.25048
G1 X153.582 Y101.65 E8.3039
G1 X153.71 Y102.318 E8.3582
G1 X153.861 Y102.803 E8.39875
G1 X156.378 Y109.737 E8.98758
G1 X156.681 Y110.681 E9.06673
G1 X156.717 Y110.801 E9.07673
G1 X156.963 Y111.565 E9.1408
G1 X157.013 Y111.74 E9.15532
G1 X157.224 Y112.612 E9.22694
G1 X157.257 Y112.77 E9.23982
G1 X157.405 Y113.662 E9.312
G1 X157.429 Y113.848 E9.32697
G1 X157.511 Y114.732 E9.39784
G1 X157.519 Y114.884 E9.40999
G1 X157.54 Y115.617 E9.46852
G1 X157.54 Y126.369 E10.32679
G1 X157.504 Y127.375 E10.40715
G1 X157.494 Y127.51 E10.41796
G1 X157.392 Y128.427 E10.49161
G1 X157.367 Y128.602 E10.50572
G1 X157.205 Y129.48 E10.57699
G1 X157.175 Y129.614 E10.58795
G1 X156.944 Y130.499 E10.66096
G1 X156.892 Y130.671 E10.6753
G1 X156.606 Y131.513 E10.74629
G1 X156.542 Y131.679 E10.76049
G1 X156.201 Y132.482 E10.83013
G1 X156.12 Y132.657 E10.84552
G1 X155.705 Y133.465 E10.91803
G1 X155.638 Y133.582 E10.92879
G1 X155.164 Y134.361 E11.00158
G1 X155.064 Y134.512 E11.01604
G1 X154.553 Y135.226 E11.08612
G1 X154.44 Y135.374 E11.10099
G1 X153.863 Y136.066 E11.17291
G1 X153.767 Y136.174 E11.18444
G1 X153.285 Y136.686 E11.24057
G1 X153.128 Y136.842 E11.25824
G1 X152.432 Y137.488 E11.33404
G1 X152.293 Y137.607 E11.34865
G1 X151.602 Y138.161 E11.41935
G1 X151.463 Y138.265 E11.4332
G1 X150.748 Y138.757 E11.50248
G1 X150.564 Y138.874 E11.51989
G1 X149.808 Y139.317 E11.58984
G1 X149.666 Y139.394 E11.60273
G1 X148.838 Y139.801 E11.67638
G1 X148.721 Y139.853 E11.6866
G1 X147.866 Y140.198 E11.76019
G1 X147.703 Y140.256 E11.774
G1 X146.86 Y140.527 E11.84469
G1 X146.696 Y140.573 E11.85828
G1 X145.824 Y140.785 E11.92992
G1 X145.662 Y140.818 E11.94312
G1 X144.769 Y140.966 E12.01537
G1 X144.592 Y140.989 E12.02962
G1 X143.698 Y141.072 E12.10129
G1 X143.556 Y141.079 E12.11264
G1 X142.815 Y141.1 E12.17181
G1 X128.214 Y141.1 E13.33733
G1 X127.546 Y141.142 E13.39075
G1 X126.875 Y141.271 E13.4453
G1 X126.226 Y141.484 E13.49982
G1 X125.612 Y141.775 E13.55406
G1 X125.173 Y142.046 E13.59524
G1 X124.847 Y142.27 E13.62682
G1 X124.683 Y142.375 E13.64236
G1 X123.928 Y142.817 E13.7122
G1 X123.786 Y142.894 E13.72509
G1 X122.958 Y143.301 E13.79874
G1 X122.841 Y143.353 E13.80896
G1 X121.986 Y143.698 E13.88255
G1 X121.823 Y143.756 E13.89637
G1 X120.98 Y144.027 E13.96705
G1 X120.816 Y144.073 E13.98065
G1 X119.944 Y144.285 E14.05228
G1 X119.782 Y144.318 E14.06548
G1 X118.889 Y144.466 E14.13773
G1 X118.712 Y144.489 E14.15198
G1 X117.818 Y144.572 E14.22365
G1 X117.676 Y144.579 E14.235
G1 X116.935 Y144.6 E14.29417
G1 X77.174 Y144.599 E17.46807
G1 X76.173 Y144.563 E17.54802
G1 X76.05 Y144.554 E17.55787
G1 X75.133 Y144.452 E17.63152
G1 X74.958 Y144.427 E17.64563
G1 X74.069 Y144.263 E17.71779
G1 X73.946 Y144.235 E17.72786
G1 X73.052 Y144.001 E17.80163
G1 X72.889 Y143.952 E17.81521
G1 X72.047 Y143.666 E17.8862
G1 X71.881 Y143.602 E17.9004
G1 X71.078 Y143.261 E17.97004
G1 X70.889 Y143.173 E17.98668
G1 X70.095 Y142.765 E18.05794
G1 X69.978 Y142.698 E18.0687
G1 X69.199 Y142.224 E18.14149
G1 X69.048 Y142.124 E18.15595
G1 X68.334 Y141.613 E18.22603
G1 X68.186 Y141.5 E18.2409
G1 X67.494 Y140.923 E18.31282
G1 X67.386 Y140.827 E18.32435
G1 X66.874 Y140.345 E18.38049
G1 X66.714 Y140.184 E18.3986
G1 X66.07 Y139.49 E18.47418
G1 X65.953 Y139.353 E18.48856
G1 X65.408 Y138.673 E18.55812
G1 X65.285 Y138.508 E18.57455
G1 X64.803 Y137.808 E18.64239
G1 X64.686 Y137.624 E18.6598
G1 X64.243 Y136.868 E18.72974
G1 X64.166 Y136.726 E18.74264
G1 X63.757 Y135.894 E18.81664
G1 X63.707 Y135.781 E18.82651
G1 X63.359 Y134.92 E18.90064
G1 X63.302 Y134.759 E18.91427
G1 X63.03 Y133.911 E18.98536
G1 X62.984 Y133.747 E18.99896
G1 X62.773 Y132.875 E19.07057
G1 X62.74 Y132.714 E19.08369
G1 X62.593 Y131.824 E19.1557
G1 X62.571 Y131.652 E19.16954
G1 X62.488 Y130.753 E19.2416
G1 X62.481 Y130.616 E19.25255
G1 X62.46 Y129.883 E19.31109
G1 X62.46 Y90.131 E22.48427
G1 X62.496 Y89.125 E22.56462
G1 X62.506 Y88.99 E22.57543
G1 X62.608 Y88.071 E22.64924
G1 X62.633 Y87.898 E22.66319
G1 X62.795 Y87.02 E22.73446
G1 X62.825 Y86.886 E22.74542
G1 X63.056 Y86.001 E22.81843
G1 X63.108 Y85.829 E22.83277
G1 X63.394 Y84.987 E22.90376
G1 X63.458 Y84.821 E22.91796
G1 X63.799 Y84.018 E22.9876
G1 X63.88 Y83.843 E23.00299
G1 X64.295 Y83.035 E23.0755
G1 X64.362 Y82.918 E23.08626
G1 X64.836 Y82.139 E23.15905
G1 X64.936 Y81.988 E23.17351
G1 X65.447 Y81.274 E23.2436
G1 X65.56 Y81.126 E23.25846
G1 X66.137 Y80.434 E23.33038
G1 X66.233 Y80.326 E23.34192
G1 X66.715 Y79.814 E23.39805
G1 X66.872 Y79.658 E23.41571
G1 X67.568 Y79.012 E23.49151
G0 F9000 X67.2 Y79.353
G1 F1350 X67.2 Y140.651 E28.38459
G0 F9000 X68.8 Y141.946
G1 F1350 X68.8 Y78.054 E33.48472
G0 F9000 X70.4 Y77.073
G1 F1350 X70.4 Y142.921 E38.74099
G0 F9000 X72 Y143.647
G1 F1350 X72 Y76.356 E44.11245
G0 F9000 X73.6 Y75.855
G1 F1350 X73.6 Y144.144 E49.56358
G0 F9000 X75.2 Y144.459
G1 F1350 X75.2 Y75.539 E55.06507
G0 F9000 X76.8 Y75.41
G1 F1350 X76.8 Y144.585 E60.58692
G0 F9000 X78.4 Y144.599
G1 F1350 X78.4 Y75.401 E66.1106
G0 F9000 X80 Y75.401
G1 F1350 X80 Y144.599 E71.63428
G0 F9000 X81.6 Y144.599
G1 F1350 X81.6 Y75.401 E77.15797
G0 F9000 X83.2 Y75.401
G1 F1350 X83.2 Y144.599 E82.68165
G0 F9000 X84.8 Y144.599
G1 F1350 X84.8 Y75.401 E88.20533
G0 F9000 X86.4 Y75.401
G1 F1350 X86.4 Y144.599 E93.72902
G0 F9000 X88 Y144.599
G1 F1350 X88 Y75.401 E99.2527
G0 F9000 X89.6 Y75.401
G1 F1350 X89.6 Y144.599 E104.77638
G0 F9000 X91.2 Y144.599
G1 F1350 X91.2 Y75.401 E110.30007
G0 F9000 X92.8 Y75.401
G1 F1350 X92.8 Y144.599 E115.82375
G0 F9000 X94.4 Y144.599
G1 F1350 X94.4 Y75.401 E121.34744
G0 F9000 X96 Y75.401
G1 F1350 X96 Y144.599 E126.87112
G0 F9000 X97.6 Y144.599
G1 F1350 X97.6 Y75.401 E132.3948
G0 F9000 X99.2 Y75.401
G1 F1350 X99.2 Y144.599 E137.91849
G0 F9000 X100.8 Y144.599
G1 F1350 X100.8 Y75.401 E143.44217
G0 F9000 X102.4 Y75.401
G1 F1350 X102.4 Y144.599 E148.96585
G0 F9000 X104 Y144.599
G1 F1350 X104 Y75.401 E154.48954
G0 F9000 X105.6 Y75.401
G1 F1350 X105.6 Y144.599 E160.01322
G0 F9000 X107.2 Y144.599
G1 F1350 X107.2 Y75.401 E165.5369
G0 F9000 X108.8 Y75.401
G1 F1350 X108.8 Y144.599 E171.06059
G0 F9000 X110.4 Y144.599
G1 F1350 X110.4 Y75.401 E176.58427
G0 F9000 X112 Y75.401
G1 F1350 X112 Y144.599 E182.10795
G0 F9000 X113.6 Y144.599
G1 F1350 X113.6 Y75.401 E187.63164
G0 F9000 X115.2 Y75.401
G1 F1350 X115.2 Y144.599 E193.15532
G0 F9000 X116.8 Y144.599
G1 F1350 X116.8 Y75.401 E198.67901
G0 F9000 X118.4 Y75.483
G1 F1350 X118.4 Y144.518 E204.18968
G0 F9000 X120 Y144.272
G1 F1350 X120 Y75.728 E209.66116
G0 F9000 X121.6 Y76.174
G1 F1350 X121.6 Y143.828 E215.06159
G0 F9000 X123.2 Y143.183
G1 F1350 X123.2 Y76.813 E220.35953
G0 F9000 X124.8 Y77.703
G1 F1350 X124.8 Y142.301 E225.51602
G0 F9000 X126.4 Y141.427
G1 F1350 X126.4 Y78.65 E230.52715
G0 F9000 X128 Y79.044
G1 F1350 X128 Y141.114 E235.48185
G0 F9000 X129.6 Y141.1
G1 F1350 X129.6 Y78.982 E240.44038
G0 F9000 X131.2 Y78.901
G1 F1350 X131.2 Y141.1 E245.40537
G0 F9000 X132.8 Y141.1
G1 F1350 X132.8 Y78.901 E250.37036
G0 F9000 X134.4 Y78.901
G1 F1350 X134.4 Y141.1 E255.33536
G0 F9000 X136 Y141.1
G1 F1350 X136 Y78.901 E260.30035
G0 F9000 X137.6 Y78.901
G1 F1350 X137.6 Y141.1 E265.26534
G0 F9000 X139.2 Y141.1
G1 F1350 X139.2 Y78.915 E270.22922
G0 F9000 X140.8 Y79.041
G1 F1350 X140.8 Y141.1 E275.18304
G0 F9000 X142.4 Y141.1
G1 F1350 X142.4 Y79.356 E280.11171
G0 F9000 X144 Y79.853
G1 F1350 X144 Y141.044 E284.99624
G0 F9000 X145.6 Y140.829
G1 F1350 X145.6 Y80.579 E289.80566
G0 F9000 X147.2 Y81.554
G1 F1350 X147.2 Y140.418 E294.50443
G0 F9000 X148.8 Y139.818
G1 F1350 X148.8 Y82.849 E299.05195
G0 F9000 X150.4 Y84.588
G1 F1350 X150.4 Y138.971 E303.39303
G0 F9000 X152 Y137.842
G1 F1350 X152 Y87.112 E307.44252
G1 F2700 E302.44252
G0 F9000 X153.204 Y87.149
G0 X153.704 Y88.395
G0 X154.265 Y90.386
G0 X154.486 Y91.724
G0 X154.581 Y93.249
G0 X154.641 Y101.516
G0 X153.6 Y101.744
G1 F2700 E307.44252
G1 F1350 X153.6 Y136.352 E310.20508
G0 F9000 X155.2 Y134.302
G1 F1350 X155.2 Y106.492 E312.425
G1 F2700 E307.425
G0 F9000 X156.2 Y106.129
G0 X157.697 Y110.362
G0 X156.8 Y111.059
G1 F2700 E312.425
G1 F1350 X156.8 Y130.942 E314.01214
G1 F2700 E309.01214
G0 F9000 X157.808 Y131.284
G0 X157.072 Y133.132
G0 X156.066 Y134.926
G0 X155.278 Y136.031
G0 X153.864 Y137.611
G0 X152.259 Y138.998
G0 X151.125 Y139.78
G0 X149.291 Y140.764
G0 X148.045 Y141.264
G0 X146.054 Y141.825
G0 X144.716 Y142.046
G0 X118.836 Y145.546
G0 X116.955 Y145.664
G0 X76.12 Y145.626
G0 X74.794 Y145.479
G0 X72.767 Y145.027
G0 X71.477 Y144.587
G0 X69.597 Y143.705
G0 X68.438 Y142.996
G0 X66.794 Y141.726
G0 X65.562 Y140.486
G0 X64.77 Y139.579
G0 X65.6 Y138.912
G1 F2700 E314.01214
G1 F1350 X65.6 Y81.078 E318.6287
G0 F9000 X64 Y83.609
G1 F1350 X64 Y136.388 E322.84175
G1 F2700 E317.84175
G0 F300 X64 Y136.388 Z0.54
G0 F9000 X63.756 Y135.893
;TIME_ELAPSED:194.440650
;LAYER:-5
;TYPE:SUPPORT
G1 F2700 E322.84175
G1 F1350 X64.166 Y136.725 E322.9343
G1 X64.242 Y136.866 E322.95028
G1 X64.686 Y137.622 E323.03776
G1 X64.802 Y137.807 E323.05955
G1 X65.285 Y138.507 E323.14441
G1 X65.408 Y138.672 E323.16495
G1 X65.953 Y139.352 E323.2519
G1 X66.069 Y139.488 E323.26974
G1 X66.713 Y140.183 E323.36428
G1 X66.873 Y140.343 E323.38686
G1 X67.385 Y140.825 E323.45702
G1 X67.494 Y140.922 E323.47158
G1 X68.186 Y141.499 E323.56148
G1 X68.333 Y141.612 E323.57998
G1 X69.048 Y142.123 E323.66767
G1 X69.198 Y142.223 E323.68566
G1 X69.978 Y142.696 E323.77668
G1 X70.094 Y142.764 E323.7901
G1 X70.888 Y143.172 E323.87917
G1 X71.077 Y143.26 E323.89997
G1 X71.178 Y143.302 E323.91089
G1 X63.747 Y135.872 E324.95941
G1 F2700 E319.95941
G0 F9000 X62.796 Y136.351
G0 X63.78 Y138.185
G0 X64.561 Y139.318
G0 X65.993 Y140.969
G0 X67.529 Y142.338
G0 X68.634 Y143.126
G0 X70.428 Y144.132
G0 X71.178 Y143.302
G1 F2700 E324.95941
G1 F1350 X71.88 Y143.601 E325.03555
G1 X72.047 Y143.665 E325.05339
G1 X72.888 Y143.951 E325.14203
G1 X73.051 Y144 E325.15901
G1 X73.373 Y144.084 E325.19221
G1 X62.967 Y133.678 E326.66061
G1 X62.773 Y132.874 E326.74314
G1 X62.739 Y132.713 E326.75956
G1 X62.605 Y131.902 E326.84158
G1 X75.156 Y144.453 E328.61266
G1 X76.05 Y144.553 E328.70242
G1 X76.172 Y144.562 E328.71462
G1 X76.698 Y144.58 E328.76714
G1 X62.473 Y130.355 E330.77444
G1 X62.46 Y129.882 E330.82166
G1 X62.46 Y128.928 E330.91685
G1 X78.13 Y144.598 E333.12805
G1 X79.544 Y144.598 E333.26914
G1 X62.46 Y127.513 E335.67995
G1 X62.46 Y126.099 E335.82104
G1 X80.958 Y144.598 E338.43138
G1 X82.372 Y144.598 E338.57247
G1 X62.46 Y124.685 E341.38234
G1 X62.46 Y123.271 E341.52342
G1 X83.787 Y144.598 E344.53289
G1 X85.201 Y144.598 E344.67398
G1 X62.46 Y121.857 E347.88298
G1 X62.46 Y120.442 E348.02417
G1 X86.615 Y144.598 E351.43278
G1 X88.029 Y144.598 E351.57387
G1 X62.46 Y119.028 E355.182
G1 X62.46 Y117.614 E355.32309
G1 X89.444 Y144.598 E359.13082
G1 X90.858 Y144.598 E359.27191
G1 X62.46 Y116.2 E363.27918
G1 X62.46 Y114.786 E363.42027
G1 X92.272 Y144.598 E367.62706
G1 X93.686 Y144.598 E367.76815
G1 X62.46 Y113.371 E372.17455
G1 X62.46 Y111.957 E372.31564
G1 X95.1 Y144.598 E376.92156
G1 X96.515 Y144.598 E377.06275
G1 X62.46 Y110.543 E381.86828
G1 X62.46 Y109.129 E382.00937
G1 X97.93 Y144.599 E387.01457
G1 X99.344 Y144.599 E387.15566
G1 X62.46 Y107.714 E392.36046
G1 X62.46 Y106.3 E392.50155
G1 X100.758 Y144.599 E397.90588
G1 X102.172 Y144.599 E398.04697
G1 X62.46 Y104.886 E403.65083
G1 X62.46 Y103.472 E403.79192
G1 X103.586 Y144.599 E409.59532
G1 X105.001 Y144.599 E409.73651
G1 X62.46 Y102.058 E415.7395
G1 X62.46 Y100.643 E415.88069
G1 X106.415 Y144.599 E422.08329
G1 X107.829 Y144.599 E422.22438
G1 X62.46 Y99.229 E428.6265
G1 X62.46 Y97.815 E428.76759
G1 X109.243 Y144.599 E435.36925
G1 X110.657 Y144.599 E435.51034
G1 X62.46 Y96.401 E442.31153
G1 X62.46 Y94.987 E442.45262
G1 X112.072 Y144.599 E449.45341
G1 X113.486 Y144.599 E449.5945
G1 X62.46 Y93.572 E456.79489
G1 X62.46 Y92.158 E456.93597
G1 X114.9 Y144.599 E464.3359
G1 X116.314 Y144.599 E464.47699
G1 X62.46 Y90.744 E472.07644
G1 X62.46 Y90.13 E472.1377
G1 X62.487 Y89.357 E472.21488
G1 X117.706 Y144.576 E480.00688
G1 X117.818 Y144.57 E480.01807
G1 X118.711 Y144.488 E480.10755
G1 X118.889 Y144.465 E480.12546
G1 X118.991 Y144.447 E480.13579
G1 X62.608 Y88.064 E488.09204
G1 X62.632 Y87.897 E488.10888
G1 X62.795 Y87.019 E488.19798
G1 X62.825 Y86.885 E488.21168
G1 X62.828 Y86.87 E488.21321
G1 X120.184 Y144.225 E496.30669
G1 X120.815 Y144.072 E496.37147
G1 X120.98 Y144.026 E496.38857
G1 X121.296 Y143.923 E496.42173
