;FLAVOR:Marlin
;TIME:16955
;Filament used: 11.8552m
;Layer height: 0.16
;MINX:82.2
;MINY:82.2
;MINZ:0.2
;MAXX:137.8
;MAXY:137.8
;MAXZ:60.8
;Generated with Creality Slicer 4.8.2-177
M140 S50
M105
M190 S50
M104 S200
M105
M109 S200
M82 ;absolute extrusion mode
M201 X500.00 Y500.00 Z100.00 E5000.00 ;Setup machine max acceleration
M203 X500.00 Y500.00 Z10.00 E50.00 ;Setup machine max feedrate
M204 P500.00 R1000.00 T500.00 ;Setup Print/Retract/Travel acceleration
M205 X8.00 Y8.00 Z0.40 E5.00 ;Setup Jerk
M220 S100 ;Reset Feedrate
M221 S100 ;Reset Flowrate

G28 ;Home

G92 E0 ;Reset Extruder
G1 Z2.0 F3000 ;Move Z Axis up
G1 X10.1 Y20 Z0.28 F5000.0 ;Move to start position
G1 X10.1 Y200.0 Z0.28 F1500.0 E15 ;Draw the first line
G1 X10.4 Y200.0 Z0.28 F5000.0 ;Move to side a little
G1 X10.4 Y20 Z0.28 F1500.0 E30 ;Draw the second line
G92 E0 ;Reset Extruder
G1 Z2.0 F3000 ;Move Z Axis up

G92 E0
G92 E0
G1 F2700 E-5
;LAYER_COUNT:306
;LAYER:0
M107
G0 F6000 X84.602 Y84.486 Z0.2
;TYPE:SKIRT
G1 F2700 E0
G1 F1200 X85.188 Y83.956 E0.02628
G1 X85.824 Y83.489 E0.05252
G1 X86.504 Y83.088 E0.07878
G1 X87.222 Y82.758 E0.10506
G1 X87.969 Y82.503 E0.13132
G1 X88.738 Y82.324 E0.15758
G1 X89.522 Y82.224 E0.18386
G1 X90.117 Y82.201 E0.20367
G1 X129.883 Y82.2 E1.52629
G1 X130.671 Y82.24 E1.55253
G1 X131.452 Y82.359 E1.57881
G1 X132.217 Y82.557 E1.60509
G1 X132.957 Y82.831 E1.63134
G1 X133.666 Y83.179 E1.65761
G1 X134.337 Y83.596 E1.68388
G1 X134.961 Y84.08 E1.71015
G1 X135.398 Y84.485 E1.72996
G1 X135.515 Y84.602 E1.73547
G1 X136.045 Y85.188 E1.76175
G1 X136.512 Y85.824 E1.78799
G1 X136.913 Y86.504 E1.81425
G1 X137.243 Y87.222 E1.84053
G1 X137.498 Y87.969 E1.86678
G1 X137.677 Y88.738 E1.89304
G1 X137.777 Y89.522 E1.91933
G1 X137.8 Y90.117 E1.93914
G1 X137.8 Y129.882 E3.26172
G1 X137.76 Y130.671 E3.288
G1 X137.641 Y131.451 E3.31424
G1 X137.443 Y132.216 E3.34053
G1 X137.169 Y132.956 E3.36677
G1 X136.821 Y133.665 E3.39304
G1 X136.403 Y134.336 E3.41933
G1 X135.92 Y134.96 E3.44558
G1 X135.515 Y135.397 E3.4654
G1 X135.398 Y135.514 E3.4709
G1 X134.812 Y136.044 E3.49718
G1 X134.176 Y136.511 E3.52342
G1 X133.496 Y136.912 E3.54968
G1 X132.778 Y137.242 E3.57596
G1 X132.031 Y137.497 E3.60222
G1 X131.262 Y137.676 E3.62848
G1 X130.478 Y137.776 E3.65476
G1 X129.883 Y137.799 E3.67457
G1 X90.117 Y137.8 E4.99719
G1 X89.329 Y137.76 E5.02343
G1 X88.548 Y137.641 E5.04971
G1 X87.783 Y137.443 E5.07599
G1 X87.043 Y137.169 E5.10224
G1 X86.334 Y136.821 E5.12851
G1 X85.663 Y136.404 E5.15478
G1 X85.039 Y135.92 E5.18105
G1 X84.602 Y135.515 E5.20086
G1 X84.485 Y135.398 E5.20637
G1 X83.955 Y134.812 E5.23265
G1 X83.488 Y134.176 E5.25889
G1 X83.087 Y133.496 E5.28515
G1 X82.757 Y132.778 E5.31143
G1 X82.502 Y132.031 E5.33768
G1 X82.323 Y131.262 E5.36394
G1 X82.223 Y130.478 E5.39023
G1 X82.2 Y129.883 E5.41004
G1 X82.2 Y90.118 E6.73262
G1 X82.24 Y89.329 E6.7589
G1 X82.359 Y88.549 E6.78514
G1 X82.557 Y87.784 E6.81143
G1 X82.831 Y87.044 E6.83767
G1 X83.179 Y86.335 E6.86394
G1 X83.597 Y85.664 E6.89023
G1 X84.08 Y85.04 E6.91648
G1 X84.485 Y84.603 E6.9363
G1 X84.602 Y84.486 E6.9418
G0 F6000 X84.884 Y84.768
G1 F1200 X85.456 Y84.254 E6.96738
G1 X86.078 Y83.801 E6.99297
G1 X86.743 Y83.415 E7.01854
G1 X87.445 Y83.1 E7.04414
G1 X88.176 Y82.86 E7.06973
G1 X88.927 Y82.697 E7.09529
G1 X89.692 Y82.613 E7.12088
G1 X90.117 Y82.601 E7.13502
G1 X129.883 Y82.6 E8.45765
G1 X130.651 Y82.64 E8.48322
G1 X131.411 Y82.759 E8.50881
G1 X132.154 Y82.957 E8.53438
G1 X132.873 Y83.231 E8.55998
G1 X133.559 Y83.578 E8.58555
G1 X134.206 Y83.994 E8.61113
G1 X134.806 Y84.475 E8.63671
G1 X135.116 Y84.767 E8.65087
G1 X135.233 Y84.884 E8.65637
G1 X135.747 Y85.456 E8.68195
G1 X136.2 Y86.078 E8.70754
G1 X136.586 Y86.743 E8.73312
G1 X136.901 Y87.445 E8.75871
G1 X137.141 Y88.176 E8.7843
G1 X137.304 Y88.927 E8.80986
G1 X137.388 Y89.692 E8.83546
G1 X137.4 Y90.117 E8.8496
G1 X137.4 Y129.882 E10.17219
G1 X137.36 Y130.65 E10.19777
G1 X137.241 Y131.41 E10.22335
G1 X137.043 Y132.153 E10.24893
G1 X136.769 Y132.872 E10.27452
G1 X136.422 Y133.558 E10.30009
G1 X136.006 Y134.205 E10.32567
G1 X135.525 Y134.805 E10.35125
G1 X135.233 Y135.115 E10.36541
G1 X135.116 Y135.232 E10.37092
G1 X134.544 Y135.746 E10.39649
G1 X133.922 Y136.199 E10.42209
G1 X133.257 Y136.585 E10.44766
G1 X132.555 Y136.9 E10.47325
G1 X131.824 Y137.14 E10.49884
G1 X131.073 Y137.303 E10.5244
G1 X130.308 Y137.387 E10.55
G1 X129.883 Y137.399 E10.56414
G1 X90.117 Y137.4 E11.88676
G1 X89.349 Y137.36 E11.91234
G1 X88.589 Y137.241 E11.93793
G1 X87.846 Y137.043 E11.9635
G1 X87.127 Y136.769 E11.98909
G1 X86.441 Y136.422 E12.01466
G1 X85.794 Y136.006 E12.04025
G1 X85.194 Y135.525 E12.06582
G1 X84.884 Y135.233 E12.07999
G1 X84.767 Y135.116 E12.08549
G1 X84.253 Y134.544 E12.11107
G1 X83.8 Y133.922 E12.13666
G1 X83.414 Y133.257 E12.16223
G1 X83.099 Y132.555 E12.18783
G1 X82.859 Y131.824 E12.21342
G1 X82.696 Y131.073 E12.23898
G1 X82.612 Y130.308 E12.26457
G1 X82.6 Y129.883 E12.27871
G1 X82.6 Y90.118 E13.6013
G1 X82.64 Y89.35 E13.62688
G1 X82.759 Y88.59 E13.65247
G1 X82.957 Y87.847 E13.67804
G1 X83.231 Y87.128 E13.70363
G1 X83.578 Y86.442 E13.7292
G1 X83.994 Y85.795 E13.75479
G1 X84.475 Y85.195 E13.78036
G1 X84.767 Y84.885 E13.79453
G1 X84.884 Y84.768 E13.80003
G0 F6000 X85.167 Y85.051
G1 F1200 X85.724 Y84.551 E13.82493
G1 X86.33 Y84.114 E13.84978
G1 X86.98 Y83.743 E13.87467
G1 X87.666 Y83.444 E13.89956
G1 X88.38 Y83.22 E13.92445
G1 X89.113 Y83.073 E13.94931
G1 X90.117 Y83.001 E13.98279
G1 X129.883 Y83 E15.30541
G1 X130.63 Y83.04 E15.3303
G1 X131.368 Y83.159 E15.35516
G1 X132.09 Y83.357 E15.38006
G1 X132.786 Y83.63 E15.40492
G1 X133.449 Y83.977 E15.42981
G1 X134.072 Y84.392 E15.45471
G1 X134.833 Y85.05 E15.48817
G1 X134.95 Y85.167 E15.49368
G1 X135.45 Y85.724 E15.51857
G1 X135.887 Y86.33 E15.54342
G1 X136.258 Y86.98 E15.56831
G1 X136.557 Y87.666 E15.5932
G1 X136.781 Y88.38 E15.61809
G1 X136.928 Y89.113 E15.64296
G1 X137 Y90.117 E15.67644
G1 X137 Y129.882 E16.99902
G1 X136.96 Y130.629 E17.02391
G1 X136.841 Y131.367 E17.04877
G1 X136.643 Y132.089 E17.07367
G1 X136.37 Y132.785 E17.09854
G1 X136.023 Y133.448 E17.12342
G1 X135.608 Y134.071 E17.14832
G1 X134.95 Y134.832 E17.18178
G1 X134.833 Y134.949 E17.18729
G1 X134.276 Y135.449 E17.21218
G1 X133.67 Y135.886 E17.23703
G1 X133.02 Y136.257 E17.26192
G1 X132.334 Y136.556 E17.28681
G1 X131.62 Y136.78 E17.3117
G1 X130.887 Y136.927 E17.33657
G1 X129.883 Y136.999 E17.37005
G1 X90.117 Y137 E18.69267
G1 X89.37 Y136.96 E18.71755
G1 X88.632 Y136.841 E18.74241
G1 X87.91 Y136.643 E18.76731
G1 X87.214 Y136.37 E18.79218
G1 X86.551 Y136.023 E18.81707
G1 X85.928 Y135.608 E18.84197
G1 X85.167 Y134.95 E18.87543
G1 X85.05 Y134.833 E18.88093
G1 X84.55 Y134.276 E18.90582
G1 X84.113 Y133.67 E18.93067
G1 X83.742 Y133.02 E18.95557
G1 X83.443 Y132.334 E18.98046
G1 X83.219 Y131.62 E19.00535
G1 X83.072 Y130.887 E19.03021
G1 X83 Y129.883 E19.06369
G1 X83 Y90.118 E20.38628
G1 X83.04 Y89.371 E20.41116
G1 X83.159 Y88.633 E20.43602
G1 X83.357 Y87.911 E20.46092
G1 X83.63 Y87.215 E20.48579
G1 X83.977 Y86.552 E20.51068
G1 X84.392 Y85.929 E20.53558
G1 X85.05 Y85.168 E20.56904
G1 X85.167 Y85.051 E20.57454
G0 F6000 X85.45 Y85.334
G1 F1200 X85.991 Y84.85 E20.59868
G1 X86.582 Y84.427 E20.62286
G1 X87.216 Y84.073 E20.64701
G1 X87.885 Y83.79 E20.67117
G1 X88.581 Y83.582 E20.69533
G1 X89.296 Y83.452 E20.7195
G1 X90.117 Y83.401 E20.74686
G1 X129.883 Y83.4 E22.06948
G1 X130.608 Y83.44 E22.09363
G1 X131.325 Y83.559 E22.1178
G1 X132.024 Y83.757 E22.14197
G1 X132.697 Y84.03 E22.16612
G1 X133.336 Y84.375 E22.19028
G1 X133.933 Y84.789 E22.21444
G1 X134.55 Y85.333 E22.2418
G1 X134.667 Y85.45 E22.2473
G1 X135.151 Y85.991 E22.27145
G1 X135.574 Y86.582 E22.29562
G1 X135.928 Y87.216 E22.31977
G1 X136.211 Y87.885 E22.34393
G1 X136.419 Y88.581 E22.36809
G1 X136.549 Y89.296 E22.39226
G1 X136.6 Y90.117 E22.41962
G1 X136.6 Y129.882 E23.74221
G1 X136.56 Y130.607 E23.76636
G1 X136.441 Y131.324 E23.79053
G1 X136.243 Y132.023 E23.8147
G1 X135.97 Y132.696 E23.83885
G1 X135.625 Y133.335 E23.86301
G1 X135.211 Y133.932 E23.88717
G1 X134.667 Y134.549 E23.91453
G1 X134.55 Y134.666 E23.92003
G1 X134.009 Y135.15 E23.94418
G1 X133.418 Y135.573 E23.96835
G1 X132.784 Y135.927 E23.9925
G1 X132.115 Y136.21 E24.01666
G1 X131.419 Y136.418 E24.04082
G1 X130.704 Y136.548 E24.06499
G1 X129.883 Y136.599 E24.09235
G1 X90.117 Y136.6 E25.41497
G1 X89.392 Y136.56 E25.43912
G1 X88.675 Y136.441 E25.4633
G1 X87.976 Y136.243 E25.48746
G1 X87.303 Y135.97 E25.51162
G1 X86.664 Y135.625 E25.53577
G1 X86.067 Y135.211 E25.55993
G1 X85.45 Y134.667 E25.58729
G1 X85.333 Y134.55 E25.5928
G1 X84.849 Y134.009 E25.61694
G1 X84.426 Y133.418 E25.64111
G1 X84.072 Y132.784 E25.66526
G1 X83.789 Y132.115 E25.68942
G1 X83.581 Y131.419 E25.71358
G1 X83.451 Y130.704 E25.73776
G1 X83.4 Y129.883 E25.76511
G1 X83.4 Y90.118 E27.0877
G1 X83.44 Y89.393 E27.11185
G1 X83.559 Y88.676 E27.13603
G1 X83.757 Y87.977 E27.16019
G1 X84.03 Y87.304 E27.18435
G1 X84.375 Y86.665 E27.2085
G1 X84.789 Y86.068 E27.23266
G1 X85.333 Y85.451 E27.26002
G1 X85.45 Y85.334 E27.26553
G0 F6000 X85.733 Y85.617
G1 F1200 X86.258 Y85.148 E27.28894
G1 X86.833 Y84.742 E27.31235
G1 X87.451 Y84.404 E27.33578
G1 X88.102 Y84.137 E27.35918
G1 X88.78 Y83.947 E27.3826
G1 X89.475 Y83.834 E27.40602
G1 X90.117 Y83.801 E27.4274
G1 X129.883 Y83.8 E28.75002
G1 X130.586 Y83.84 E28.77344
G1 X131.279 Y83.959 E28.79683
G1 X131.955 Y84.157 E28.82026
G1 X132.604 Y84.429 E28.84366
G1 X133.218 Y84.774 E28.86709
G1 X133.789 Y85.185 E28.89049
G1 X134.267 Y85.616 E28.9119
G1 X134.384 Y85.733 E28.9174
G1 X134.853 Y86.258 E28.94081
G1 X135.259 Y86.833 E28.96422
G1 X135.597 Y87.451 E28.98765
G1 X135.864 Y88.102 E29.01106
G1 X136.054 Y88.78 E29.03447
G1 X136.167 Y89.475 E29.05789
G1 X136.2 Y90.117 E29.07928
G1 X136.2 Y129.882 E30.40186
G1 X136.16 Y130.585 E30.42528
G1 X136.041 Y131.279 E30.4487
G1 X135.843 Y131.954 E30.4721
G1 X135.571 Y132.603 E30.49551
G1 X135.226 Y133.217 E30.51893
G1 X134.815 Y133.788 E30.54233
G1 X134.384 Y134.266 E30.56374
G1 X134.267 Y134.383 E30.56924
G1 X133.742 Y134.852 E30.59265
G1 X133.167 Y135.258 E30.61607
G1 X132.549 Y135.596 E30.63949
G1 X131.898 Y135.863 E30.6629
G1 X131.22 Y136.053 E30.68632
G1 X130.525 Y136.166 E30.70973
G1 X129.883 Y136.199 E30.73112
G1 X90.117 Y136.2 E32.05374
G1 X89.414 Y136.16 E32.07716
G1 X88.721 Y136.041 E32.10054
G1 X88.045 Y135.843 E32.12397
G1 X87.396 Y135.571 E32.14738
G1 X86.782 Y135.226 E32.1708
G1 X86.211 Y134.815 E32.1942
G1 X85.733 Y134.384 E32.21561
G1 X85.616 Y134.267 E32.22111
G1 X85.147 Y133.742 E32.24453
G1 X84.741 Y133.167 E32.26794
G1 X84.403 Y132.549 E32.29137
G1 X84.136 Y131.898 E32.31477
G1 X83.946 Y131.22 E32.33819
G1 X83.833 Y130.525 E32.36161
G1 X83.8 Y129.883 E32.38299
G1 X83.8 Y90.118 E33.70558
G1 X83.84 Y89.415 E33.729
G1 X83.959 Y88.721 E33.75242
G1 X84.157 Y88.046 E33.77581
G1 X84.429 Y87.397 E33.79922
G1 X84.774 Y86.783 E33.82264
G1 X85.185 Y86.212 E33.84604
G1 X85.616 Y85.734 E33.86745
G1 X85.733 Y85.617 E33.87295
G0 F6000 X86.016 Y85.9
G1 F1200 X86.525 Y85.447 E33.89562
G1 X87.083 Y85.058 E33.91824
G1 X87.683 Y84.736 E33.94089
G1 X88.317 Y84.487 E33.96354
G1 X88.976 Y84.314 E33.9862
G1 X89.65 Y84.22 E34.00884
G1 X90.117 Y84.201 E34.02438
G1 X129.883 Y84.2 E35.34701
G1 X130.563 Y84.24 E35.36966
G1 X131.233 Y84.359 E35.3923
G1 X131.885 Y84.556 E35.41495
G1 X132.509 Y84.828 E35.43759
G1 X133.097 Y85.172 E35.46025
G1 X133.64 Y85.582 E35.48288
G1 X133.984 Y85.899 E35.49844
G1 X134.101 Y86.016 E35.50394
G1 X134.554 Y86.525 E35.5266
G1 X134.943 Y87.083 E35.54923
G1 X135.265 Y87.683 E35.57188
G1 X135.514 Y88.317 E35.59453
G1 X135.687 Y88.976 E35.61719
G1 X135.781 Y89.65 E35.63983
G1 X135.8 Y90.117 E35.65537
G1 X135.8 Y129.882 E36.97796
G1 X135.76 Y130.562 E37.00062
G1 X135.641 Y131.232 E37.02325
G1 X135.444 Y131.884 E37.0459
G1 X135.172 Y132.508 E37.06854
G1 X134.828 Y133.096 E37.0912
G1 X134.418 Y133.64 E37.11386
G1 X134.101 Y133.983 E37.12939
G1 X133.984 Y134.1 E37.1349
G1 X133.475 Y134.553 E37.15756
G1 X132.917 Y134.942 E37.18018
G1 X132.317 Y135.264 E37.20283
G1 X131.683 Y135.513 E37.22549
G1 X131.024 Y135.686 E37.24815
G1 X130.35 Y135.78 E37.27078
G1 X129.883 Y135.799 E37.28633
G1 X90.117 Y135.8 E38.60895
G1 X89.437 Y135.76 E38.63161
G1 X88.767 Y135.641 E38.65424
G1 X88.115 Y135.444 E38.67689
G1 X87.491 Y135.172 E38.69953
G1 X86.903 Y134.828 E38.72219
G1 X86.36 Y134.418 E38.74482
G1 X86.016 Y134.101 E38.76038
G1 X85.899 Y133.984 E38.76588
G1 X85.446 Y133.475 E38.78855
G1 X85.057 Y132.917 E38.81117
G1 X84.735 Y132.317 E38.83382
G1 X84.486 Y131.683 E38.85647
G1 X84.313 Y131.024 E38.87913
G1 X84.219 Y130.35 E38.90177
G1 X84.2 Y129.883 E38.91731
G1 X84.2 Y90.118 E40.2399
G1 X84.24 Y89.438 E40.26256
G1 X84.359 Y88.768 E40.28519
G1 X84.556 Y88.116 E40.30785
G1 X84.828 Y87.492 E40.33049
G1 X85.172 Y86.904 E40.35314
G1 X85.582 Y86.36 E40.3758
G1 X85.899 Y86.017 E40.39134
G1 X86.016 Y85.9 E40.39684
G0 F6000 X86.299 Y86.183
G1 F1200 X86.791 Y85.747 E40.4187
G1 X87.332 Y85.375 E40.44054
G1 X87.914 Y85.071 E40.46238
G1 X88.529 Y84.84 E40.48423
G1 X89.168 Y84.685 E40.5061
G1 X90.117 Y84.601 E40.53779
G1 X129.883 Y84.6 E41.86041
G1 X130.539 Y84.64 E41.88227
G1 X131.185 Y84.759 E41.90412
G1 X131.811 Y84.956 E41.92594
G1 X132.41 Y85.228 E41.94782
G1 X132.971 Y85.57 E41.96968
G1 X133.701 Y86.182 E42.00136
G1 X133.818 Y86.299 E42.00686
G1 X134.254 Y86.791 E42.02873
G1 X134.626 Y87.332 E42.05057
G1 X134.93 Y87.914 E42.07241
G1 X135.161 Y88.529 E42.09426
G1 X135.316 Y89.168 E42.11613
G1 X135.4 Y90.117 E42.14781
G1 X135.4 Y129.882 E43.4704
G1 X135.36 Y130.538 E43.49226
G1 X135.241 Y131.184 E43.51411
G1 X135.044 Y131.811 E43.53597
G1 X134.772 Y132.409 E43.55782
G1 X134.43 Y132.97 E43.57967
G1 X133.818 Y133.7 E43.61135
G1 X133.701 Y133.817 E43.61686
G1 X133.209 Y134.253 E43.63872
G1 X132.668 Y134.625 E43.66056
G1 X132.086 Y134.929 E43.6824
G1 X131.471 Y135.16 E43.70425
G1 X130.832 Y135.315 E43.72612
G1 X129.883 Y135.399 E43.75781
G1 X90.117 Y135.4 E45.08043
G1 X89.461 Y135.36 E45.10229
G1 X88.815 Y135.241 E45.12413
G1 X88.189 Y135.044 E45.14596
G1 X87.59 Y134.772 E45.16784
G1 X87.029 Y134.43 E45.1897
G1 X86.299 Y133.818 E45.22138
G1 X86.182 Y133.701 E45.22688
G1 X85.746 Y133.209 E45.24875
G1 X85.374 Y132.668 E45.27058
G1 X85.07 Y132.086 E45.29242
G1 X84.839 Y131.471 E45.31427
G1 X84.684 Y130.832 E45.33614
G1 X84.6 Y129.883 E45.36783
G1 X84.6 Y90.118 E46.69042
G1 X84.64 Y89.462 E46.71228
G1 X84.759 Y88.816 E46.73413
G1 X84.956 Y88.189 E46.75599
G1 X85.228 Y87.591 E46.77784
G1 X85.57 Y87.03 E46.79969
G1 X86.182 Y86.3 E46.83137
G1 X86.299 Y86.183 E46.83688
G0 F6000 X86.581 Y86.465
G1 F1200 X87.056 Y86.048 E46.8579
G1 X87.579 Y85.693 E46.87892
G1 X88.143 Y85.407 E46.89996
G1 X88.738 Y85.195 E46.92096
G1 X89.356 Y85.059 E46.94201
G1 X90.117 Y85.001 E46.96739
G1 X129.883 Y85 E48.29002
G1 X130.514 Y85.04 E48.31105
G1 X131.135 Y85.159 E48.33208
G1 X131.735 Y85.356 E48.35308
G1 X132.307 Y85.627 E48.37413
G1 X132.839 Y85.967 E48.39513
G1 X133.419 Y86.464 E48.42054
G1 X133.536 Y86.581 E48.42604
G1 X133.953 Y87.056 E48.44706
G1 X134.308 Y87.579 E48.46809
G1 X134.594 Y88.143 E48.48912
G1 X134.806 Y88.738 E48.51013
G1 X134.942 Y89.356 E48.53117
G1 X135 Y90.117 E48.55656
G1 X135 Y129.882 E49.87915
G1 X134.96 Y130.513 E49.90018
G1 X134.841 Y131.134 E49.92121
G1 X134.644 Y131.734 E49.94221
G1 X134.373 Y132.306 E49.96326
G1 X134.033 Y132.838 E49.98426
G1 X133.536 Y133.418 E50.00967
G1 X133.419 Y133.535 E50.01517
G1 X132.944 Y133.952 E50.03619
G1 X132.421 Y134.307 E50.05722
G1 X131.857 Y134.593 E50.07825
G1 X131.262 Y134.805 E50.09926
G1 X130.644 Y134.941 E50.12031
G1 X129.883 Y134.999 E50.14569
G1 X90.117 Y135 E51.46831
G1 X89.486 Y134.96 E51.48934
G1 X88.865 Y134.841 E51.51037
G1 X88.265 Y134.644 E51.53138
G1 X87.693 Y134.373 E51.55243
G1 X87.161 Y134.033 E51.57343
G1 X86.581 Y133.536 E51.59883
G1 X86.464 Y133.419 E51.60434
G1 X86.047 Y132.944 E51.62536
G1 X85.692 Y132.421 E51.64638
G1 X85.406 Y131.857 E51.66741
G1 X85.194 Y131.262 E51.68842
G1 X85.058 Y130.644 E51.70947
G1 X85 Y129.883 E51.73485
G1 X85 Y90.118 E53.05744
